(Created with emc2b post processor 2016/12/20 22:58)
(tool change to 6 mm Fraise à Rainurer)
T3 M06 G43
G17 G90 G21
G00 Z10 S7000 M03
X114.994 Y39.117
Z2
G01 Z-2.2 F100
X117.192 Y32.789 F600
X114.994 Y26.461 
X112.796 Y32.789 
X114.994 Y39.117 
G00 Z10
X116.687 Y43.393
Z2
G01 Z-2.2 F100
X120.369 Y32.79 F600
X116.689 Y22.192 
X113.302 Y22.192 
X109.622 Y32.789 
X113.304 Y43.393 
X116.687 Y43.393 
G00 Z10
X118.822 Y46.393
Z2
G01 Z-2.2 F100
X123.545 Y32.791 F600
X118.824 Y19.192 
X111.168 Y19.192 
X106.447 Y32.791 
X111.17 Y46.393 
X118.822 Y46.393 
G00 Z10
X120.958 Y49.393
Z2
G01 Z-2.2 F100
X126.721 Y32.792 F600
X120.959 Y16.192 
X109.034 Y16.192 
X103.272 Y32.792 
X109.036 Y49.393 
X120.958 Y49.393 
G00 Z10
X123.093 Y52.393
Z2
G01 Z-2.2 F100
X129.898 Y32.794 F600
X123.095 Y13.192 
X106.9 Y13.192 
X100.098 Y32.794 
X106.902 Y52.393 
X123.093 Y52.393 
G00 Z10
X125.229 Y55.393
Z2
G01 Z-2.2 F100
X133.074 Y32.795 F600
X125.231 Y10.193 
X104.767 Y10.193 
X96.923 Y32.795 
X104.768 Y55.393 
X125.229 Y55.393 
G00 Z10
X127.248 Y58.394
Z2
G01 Z-2.2 F100
X127.358 Y58.385 F600
X127.402 Y58.284 
X136.216 Y32.89 
G02 X136.215 Y32.695 I-0.166 J-0.096 
G01 X127.402 Y7.302 
X127.359 Y7.202 
X127.248 Y7.194 
X102.75 Y7.194 
X102.64 Y7.201 
X102.596 Y7.302 
X93.783 Y32.695 
G02 X93.782 Y32.89 I0.165 J0.098 
G01 X102.596 Y58.284 
X102.64 Y58.385 
X102.75 Y58.394 
X127.248 Y58.394 
G00 Z10
(ENTITIES PercageConnecteur)
X123.6 Y32.794 S7000 M03
Z2
G01 Z-2.625 F100
G02 X125.6 Y32.794 I1 J0 F600
G01 X125.6 Y13.694 Z-2.625 
G02 X124.6 Y12.694 Z-2.625 I-1 J0 
G01 X105.4 Y12.694 Z-2.625 
G02 X104.4 Y13.694 Z-2.625 I0 J1 
G01 X104.4 Y51.894 Z-2.625 
G02 X105.4 Y52.894 Z-2.625 I1 J0 
G01 X124.6 Y52.894 Z-2.625 
G02 X125.6 Y51.894 Z-2.625 I0 J-1 
G01 X125.6 Y32.794 Z-2.625 
G02 X123.6 Y32.794 I-1 J0 
G01 Z-5.25 F100
G02 X125.6 Y32.794 I1 J0 F600
G01 X125.6 Y13.694 Z-5.25 
G02 X124.6 Y12.694 Z-5.25 I-1 J0 
G01 X105.4 Y12.694 Z-5.25 
G02 X104.4 Y13.694 Z-5.25 I0 J1 
G01 X104.4 Y51.894 Z-5.25 
G02 X105.4 Y52.894 Z-5.25 I1 J0 
G01 X124.6 Y52.894 Z-5.25 
G02 X125.6 Y51.894 Z-5.25 I0 J-1 
G01 X125.6 Y32.794 Z-5.25 
G02 X123.6 Y32.794 I-1 J0 
G01 Z-7.875 F100
G02 X125.6 Y32.794 I1 J0 F600
G01 X125.6 Y13.694 Z-7.875 
G02 X124.6 Y12.694 Z-7.875 I-1 J0 
G01 X105.4 Y12.694 Z-7.875 
G02 X104.4 Y13.694 Z-7.875 I0 J1 
G01 X104.4 Y24.853 Z-7.875 
X104.4 Y25.228 Z-7.5 
X104.4 Y41.228 Z-7.5 
X104.4 Y41.603 Z-7.875 
X104.4 Y51.894 Z-7.875 
G02 X105.4 Y52.894 Z-7.875 I1 J0 
G01 X124.6 Y52.894 Z-7.875 
G02 X125.6 Y51.894 Z-7.875 I0 J-1 
G01 X125.6 Y32.794 Z-7.875 
G02 X123.6 Y32.794 I-1 J0 
G01 Z-10.5 F100
G02 X125.6 Y32.794 I1 J0 F600
G01 X125.6 Y13.694 Z-10.5 
G02 X124.6 Y12.694 Z-10.5 I-1 J0 
G01 X105.4 Y12.694 Z-10.5 
G02 X104.4 Y13.694 Z-10.5 I0 J1 
G01 X104.4 Y22.228 Z-10.5 
X104.4 Y25.228 Z-7.5 
X104.4 Y41.228 Z-7.5 
X104.4 Y44.228 Z-10.5 
X104.4 Y51.894 Z-10.5 
G02 X105.4 Y52.894 Z-10.5 I1 J0 
G01 X124.6 Y52.894 Z-10.5 
G02 X125.6 Y51.894 Z-10.5 I0 J-1 
G01 X125.6 Y32.794 Z-10.5 
G02 X123.6 Y32.794 I-1 J0 
G00 Z10
G90
(ENTITIES Exterieur)
X-5 Y70.732 S7000 M03
Z2
G01 Z-2.625 F100
G02 X-3 Y70.732 I1 J0 F600
G01 X-3 Y0.653 
G03 X0 Y-2.346 I3 J0 
G01 X160 Y-2.346 
G03 X163 Y0.653 I0 J3 
G01 X163 Y99.935 
G03 X160 Y102.935 I-3 J0 
G01 X0 Y102.935 
G03 X-3 Y99.935 I0 J-3 
G01 X-3 Y70.732 
G02 X-5 Y70.732 I-1 J0 
G01 Z-5.25 F100
G02 X-3 Y70.732 I1 J0 F600
G01 X-3 Y0.653 
G03 X0 Y-2.346 I3 J0 
G01 X160 Y-2.346 
G03 X163 Y0.653 I0 J3 
G01 X163 Y99.935 
G03 X160 Y102.935 I-3 J0 
G01 X0 Y102.935 
G03 X-3 Y99.935 I0 J-3 
G01 X-3 Y70.732 
G02 X-5 Y70.732 I-1 J0 
G01 Z-7.875 F100
G02 X-3 Y70.732 I1 J0 F600
G01 X-3 Y0.653 
G03 X0 Y-2.346 I3 J0 
G01 X160 Y-2.346 
G03 X163 Y0.653 I0 J3 
G01 X163 Y99.935 
G03 X160 Y102.935 I-3 J0 
G01 X0 Y102.935 
G03 X-3 Y99.935 I0 J-3 
G01 X-3 Y70.732 
G02 X-5 Y70.732 I-1 J0 
G01 Z-10.5 F100
G02 X-3 Y70.732 I1 J0 F600
G01 X-3 Y0.653 
G03 X0 Y-2.346 I3 J0 
G01 X160 Y-2.346 
G03 X163 Y0.653 I0 J3 
G01 X163 Y99.935 
G03 X160 Y102.935 I-3 J0 
G01 X0 Y102.935 
G03 X-3 Y99.935 I0 J-3 
G01 X-3 Y70.732 
G02 X-5 Y70.732 I-1 J0 
G00 Z10
T0 M06 M02
