(Created with emc2b post processor 2016/12/20 23:36)
(tool change to 6 mm Fraise à Rainurer)
T3 M06 G43
G17 G90 G21
(ENTITIES 0)
G00 X-5 Y10.786 S7000 M03
Z2
G01 Z-2.625 F100
G02 X-3 Y10.786 I1 J0 F600
G01 X-3 Y0 Z-2.625 
G03 X0 Y-3 Z-2.625 I3 J0 
G01 X160 Y-3 Z-2.625 
G03 X163 Y0 Z-2.625 I0 J3 
G01 X163 Y120 Z-2.625 
G03 X160 Y123 Z-2.625 I-3 J0 
G01 X0 Y123 Z-2.625 
G03 X-3 Y120 Z-2.625 I0 J-3 
G01 X-3 Y10.786 Z-2.625 
G02 X-5 Y10.786 I-1 J0 
G01 Z-5.25 F100
G02 X-3 Y10.786 I1 J0 F600
G01 X-3 Y0 Z-5.25 
G03 X0 Y-3 Z-5.25 I3 J0 
G01 X160 Y-3 Z-5.25 
G03 X163 Y0 Z-5.25 I0 J3 
G01 X163 Y120 Z-5.25 
G03 X160 Y123 Z-5.25 I-3 J0 
G01 X0 Y123 Z-5.25 
G03 X-3 Y120 Z-5.25 I0 J-3 
G01 X-3 Y10.786 Z-5.25 
G02 X-5 Y10.786 I-1 J0 
G01 Z-7.875 F100
G02 X-3 Y10.786 I1 J0 F600
G01 X-3 Y0 Z-7.875 
G03 X0 Y-3 Z-7.875 I3 J0 
G01 X113.131 Y-3 Z-7.875 
X113.506 Y-3 Z-7.5 
X129.506 Y-3 Z-7.5 
X129.881 Y-3 Z-7.875 
X160 Y-3 Z-7.875 
G03 X163 Y0 Z-7.875 I0 J3 
G01 X163 Y120 Z-7.875 
G03 X160 Y123 Z-7.875 I-3 J0 
G01 X50.443 Y123 Z-7.875 
X50.068 Y123 Z-7.5 
X34.068 Y123 Z-7.5 
X33.693 Y123 Z-7.875 
X0 Y123 Z-7.875 
G03 X-3 Y120 Z-7.875 I0 J-3 
G01 X-3 Y10.786 Z-7.875 
G02 X-5 Y10.786 I-1 J0 
G01 Z-10.5 F100
G02 X-3 Y10.786 I1 J0 F600
G01 X-3 Y0 Z-10.5 
G03 X0 Y-3 Z-10.5 I3 J0 
G01 X110.506 Y-3 Z-10.5 
X113.506 Y-3 Z-7.5 
X129.506 Y-3 Z-7.5 
X132.506 Y-3 Z-10.5 
X160 Y-3 Z-10.5 
G03 X163 Y0 Z-10.5 I0 J3 
G01 X163 Y120 Z-10.5 
G03 X160 Y123 Z-10.5 I-3 J0 
G01 X53.068 Y123 Z-10.5 
X50.068 Y123 Z-7.5 
X34.068 Y123 Z-7.5 
X31.068 Y123 Z-10.5 
X0 Y123 Z-10.5 
G03 X-3 Y120 Z-10.5 I0 J-3 
G01 X-3 Y10.786 Z-10.5 
G02 X-5 Y10.786 I-1 J0 
G00 Z10
T0 M06 M02
