(Created with emc2b post processor 2016/12/18 20:22)
G61
(tool change to 6 mm Fraise à Rainurer)
T3 M06 G43
G17 G90 G21
G00 Z8 S7000 M03
X129.999 Y24.989
Z1
G01 Z-2.5 F20
G02 X129.995 Y15.008 I-0 J-4.99 F600
X129.999 Y24.989 I0.001 J4.99 
G01 X129.998 Y29.994 
G02 X129.999 Y10.004 I0.001 J-9.994 
X129.998 Y29.994 I-0.001 J9.994 
G01 X129.999 Y34.998 
G02 X129.999 Y5.001 I0 J-14.998 
X129.999 Y34.998 I0 J14.998 
G00 Z8
X129.999 Y24.989
Z-1.5
G01 Z-5 F20
G02 X129.995 Y15.008 I-0 J-4.99 F600
X129.999 Y24.989 I0.001 J4.99 
G01 X129.998 Y29.994 
G02 X129.999 Y10.004 I0.001 J-9.994 
X129.998 Y29.994 I-0.001 J9.994 
G01 X129.999 Y34.998 
G02 X129.999 Y5.001 I0 J-14.998 
X129.999 Y34.998 I0 J14.998 
G00 Z8
X129.999 Y24.989
Z-4
G01 Z-7.5 F20
G02 X129.995 Y15.008 I-0 J-4.99 F600
X129.999 Y24.989 I0.001 J4.99 
G01 X129.998 Y29.994 
G02 X129.999 Y10.004 I0.001 J-9.994 
X129.998 Y29.994 I-0.001 J9.994 
G01 X129.999 Y34.998 
G02 X129.999 Y5.001 I0 J-14.998 
X129.999 Y34.998 I0 J14.998 
G00 Z8
(Esquisse 0)
X133.394 Y16.605 S7000 M03
Z-6.5
G01 Z-10.2 F20
G02 X130 Y15.2 I-3.394 J3.394 F600
X125.2 Y20 I0 J4.8 
X130 Y24.8 I4.8 J0 
X134.8 Y20 I0 J-4.8 
X133.394 Y16.605 I-4.8 J0 
G00 Z8
G90
(ENTITIES Exterieur)
X80 Y-3 S7000 M03
Z1
G01 Z-2.55 F20
X160 Y-3 Z-2.55 F600
G03 X163 Y0 Z-2.55 I0 J3 
G01 X163 Y40 Z-2.55 
G03 X160 Y43 Z-2.55 I-3 J0 
G01 X0 Y43 Z-2.55 
G03 X-3 Y40 Z-2.55 I0 J-3 
G01 X-3 Y0 Z-2.55 
G03 X0 Y-3 Z-2.55 I3 J0 
G01 X80 Y-3 Z-2.55 
Z-5.1 F20
X160 Y-3 Z-5.1 F600
G03 X163 Y0 Z-5.1 I0 J3 
G01 X163 Y40 Z-5.1 
G03 X160 Y43 Z-5.1 I-3 J0 
G01 X0 Y43 Z-5.1 
G03 X-3 Y40 Z-5.1 I0 J-3 
G01 X-3 Y0 Z-5.1 
G03 X0 Y-3 Z-5.1 I3 J0 
G01 X80 Y-3 Z-5.1 
Z-7.65 F20
X160 Y-3 Z-7.65 F600
G03 X163 Y0 Z-7.65 I0 J3 
G01 X163 Y8.061 Z-7.65 
X163 Y8.511 Z-7.2 
X163 Y24.511 Z-7.2 
X163 Y24.961 Z-7.65 
X163 Y40 Z-7.65 
G03 X160 Y43 Z-7.65 I-3 J0 
G01 X0 Y43 Z-7.65 
G03 X-3 Y40 Z-7.65 I0 J-3 
G01 X-3 Y32.651 Z-7.65 
X-3 Y32.201 Z-7.2 
X-3 Y16.201 Z-7.2 
X-3 Y15.751 Z-7.65 
X-3 Y0 Z-7.65 
G03 X0 Y-3 Z-7.65 I3 J0 
G01 X80 Y-3 Z-7.65 
Z-10.2 F20
X160 Y-3 Z-10.2 F600
G03 X163 Y0 Z-10.2 I0 J3 
G01 X163 Y5.511 Z-10.2 
X163 Y8.511 Z-7.2 
X163 Y24.511 Z-7.2 
X163 Y27.511 Z-10.2 
X163 Y40 Z-10.2 
G03 X160 Y43 Z-10.2 I-3 J0 
G01 X0 Y43 Z-10.2 
G03 X-3 Y40 Z-10.2 I0 J-3 
G01 X-3 Y35.201 Z-10.2 
X-3 Y32.201 Z-7.2 
X-3 Y16.201 Z-7.2 
X-3 Y13.201 Z-10.2 
X-3 Y0 Z-10.2 
G03 X0 Y-3 Z-10.2 I3 J0 
G01 X80 Y-3 Z-10.2 
G00 Z8
T0 M06 M02
