(Created with emc2b post processor 2016/11/29 19:53)
G61
(tool change to 3.125 mm Fraise à Rainurer)
T1 M06 G43
G17 G90 G21
(Esquisse 0)
G00 X111.562 Y57.25 S7000 M03
Z1
G01 Z-1 F20
X111.562 Y58.187 F400
X112.437 Y58.187 
X112.437 Y56.312 
X111.562 Y56.312 
X111.562 Y57.25 
G00 Z10
(Esquisse 0)
G90X91.562 Y57.25
Z1
G01 Z-1 F20
X91.562 Y58.187 F400
X92.437 Y58.187 
X92.437 Y56.312 
X91.562 Y56.312 
X91.562 Y57.25 
G00 Z10
(Esquisse 0)
G90X71.562 Y57.25
Z1
G01 Z-1 F20
X71.562 Y58.187 F400
X72.437 Y58.187 
X72.437 Y56.312 
X71.562 Y56.312 
X71.562 Y57.25 
G00 Z10
G90
X138.437 Y56.687 S7000 M03
Z1
G01 Z-1 F20
X138.437 Y30.312 F400
X137.562 Y30.312 
X137.562 Y56.687 
X138.437 Y56.687 
X139.437 Y57.687 
X139.437 Y29.312 
X136.562 Y29.312 
X136.562 Y57.687 
X139.437 Y57.687 
G00 Z10
(ENTITIES Pins)
X142.562 Y39.25 S7000 M03
Z1
G01 Z-1 F20
X142.562 Y60.187 F400
X143.437 Y60.187 
X143.437 Y18.312 
X142.562 Y18.312 
X142.562 Y39.25 
Z-2 F20
X142.562 Y60.187 F400
X143.437 Y60.187 
X143.437 Y18.312 
X142.562 Y18.312 
X142.562 Y39.25 
G00 Z10
G90
(Esquisse 0)
X136.662 Y24.912 S7000 M03
Z1
G01 Z-1 F20
G02 X136.937 Y24.25 I-0.662 J-0.662 F400
X136 Y23.312 I-0.937 J0 
X135.062 Y24.25 I0 J0.937 
X136 Y25.187 I0.937 J0 
X136.662 Y24.912 I0 J-0.937 
G01 Z-2 F20
G02 X136.937 Y24.25 I-0.662 J-0.662 F400
X136 Y23.312 I-0.937 J0 
X135.062 Y24.25 I0 J0.937 
X136 Y25.187 I0.937 J0 
X136.662 Y24.912 I0 J-0.937 
G01 Z-3 F20
G02 X136.937 Y24.25 I-0.662 J-0.662 F400
X136 Y23.312 I-0.937 J0 
X135.062 Y24.25 I0 J0.937 
X136 Y25.187 I0.937 J0 
X136.662 Y24.912 I0 J-0.937 
G01 Z-4 F20
G02 X136.937 Y24.25 I-0.662 J-0.662 F400
X136 Y23.312 I-0.937 J0 
X135.062 Y24.25 I0 J0.937 
X136 Y25.187 I0.937 J0 
X136.662 Y24.912 I0 J-0.937 
G01 Z-5 F20
G02 X136.937 Y24.25 I-0.662 J-0.662 F400
X136 Y23.312 I-0.937 J0 
X135.062 Y24.25 I0 J0.937 
X136 Y25.187 I0.937 J0 
X136.662 Y24.912 I0 J-0.937 
G01 Z-6 F20
G02 X136.937 Y24.25 I-0.662 J-0.662 F400
X136 Y23.312 I-0.937 J0 
X135.062 Y24.25 I0 J0.937 
X136 Y25.187 I0.937 J0 
X136.662 Y24.912 I0 J-0.937 
G01 Z-7 F20
G02 X136.937 Y24.25 I-0.662 J-0.662 F400
X136 Y23.312 I-0.937 J0 
X135.062 Y24.25 I0 J0.937 
X136 Y25.187 I0.937 J0 
X136.662 Y24.912 I0 J-0.937 
G01 Z-8 F20
G02 X136.937 Y24.25 I-0.662 J-0.662 F400
X136 Y23.312 I-0.937 J0 
X135.062 Y24.25 I0 J0.937 
X136 Y25.187 I0.937 J0 
X136.662 Y24.912 I0 J-0.937 
G01 Z-9 F20
G02 X136.937 Y24.25 I-0.662 J-0.662 F400
X136 Y23.312 I-0.937 J0 
X135.062 Y24.25 I0 J0.937 
X136 Y25.187 I0.937 J0 
X136.662 Y24.912 I0 J-0.937 
G01 Z-10 F20
G02 X136.937 Y24.25 I-0.662 J-0.662 F400
X136 Y23.312 I-0.937 J0 
X135.062 Y24.25 I0 J0.937 
X136 Y25.187 I0.937 J0 
X136.662 Y24.912 I0 J-0.937 
G00 Z10
G90
(Esquisse 0)
X55.62 Y44.12 S7000 M03
Z-5
G01 Z-7 F20
G02 X56.187 Y42.75 I-1.37 J-1.37 F400
X54.25 Y40.812 I-1.937 J0 
X52.312 Y42.75 I0 J1.937 
X54.25 Y44.687 I1.937 J0 
X55.62 Y44.12 I0 J-1.937 
G01 Z-8 F20
G02 X56.187 Y42.75 I-1.37 J-1.37 F400
X54.25 Y40.812 I-1.937 J0 
X52.312 Y42.75 I0 J1.937 
X54.25 Y44.687 I1.937 J0 
X55.62 Y44.12 I0 J-1.937 
G01 Z-9 F20
G02 X56.187 Y42.75 I-1.37 J-1.37 F400
X54.25 Y40.812 I-1.937 J0 
X52.312 Y42.75 I0 J1.937 
X54.25 Y44.687 I1.937 J0 
X55.62 Y44.12 I0 J-1.937 
G01 Z-10 F20
G02 X56.187 Y42.75 I-1.37 J-1.37 F400
X54.25 Y40.812 I-1.937 J0 
X52.312 Y42.75 I0 J1.937 
X54.25 Y44.687 I1.937 J0 
X55.62 Y44.12 I0 J-1.937 
G00 Z10
G90
(Esquisse 0)
X27.43 Y42.43 S7000 M03
Z1
G01 Z-1 F20
G02 X28.437 Y40 I-2.43 J-2.43 F400
X25 Y36.562 I-3.437 J0 
X21.562 Y40 I0 J3.437 
X25 Y43.437 I3.437 J0 
X27.43 Y42.43 I0 J-3.437 
G01 Z-2 F20
G02 X28.437 Y40 I-2.43 J-2.43 F400
X25 Y36.562 I-3.437 J0 
X21.562 Y40 I0 J3.437 
X25 Y43.437 I3.437 J0 
X27.43 Y42.43 I0 J-3.437 
G01 Z-3 F20
G02 X28.437 Y40 I-2.43 J-2.43 F400
X25 Y36.562 I-3.437 J0 
X21.562 Y40 I0 J3.437 
X25 Y43.437 I3.437 J0 
X27.43 Y42.43 I0 J-3.437 
G01 Z-4 F20
G02 X28.437 Y40 I-2.43 J-2.43 F400
X25 Y36.562 I-3.437 J0 
X21.562 Y40 I0 J3.437 
X25 Y43.437 I3.437 J0 
X27.43 Y42.43 I0 J-3.437 
G01 Z-5 F20
G02 X28.437 Y40 I-2.43 J-2.43 F400
X25 Y36.562 I-3.437 J0 
X21.562 Y40 I0 J3.437 
X25 Y43.437 I3.437 J0 
X27.43 Y42.43 I0 J-3.437 
G01 Z-6 F20
G02 X28.437 Y40 I-2.43 J-2.43 F400
X25 Y36.562 I-3.437 J0 
X21.562 Y40 I0 J3.437 
X25 Y43.437 I3.437 J0 
X27.43 Y42.43 I0 J-3.437 
G01 Z-7 F20
G02 X28.437 Y40 I-2.43 J-2.43 F400
X25 Y36.562 I-3.437 J0 
X21.562 Y40 I0 J3.437 
X25 Y43.437 I3.437 J0 
X27.43 Y42.43 I0 J-3.437 
G01 Z-8 F20
G02 X28.437 Y40 I-2.43 J-2.43 F400
X25 Y36.562 I-3.437 J0 
X21.562 Y40 I0 J3.437 
X25 Y43.437 I3.437 J0 
X27.43 Y42.43 I0 J-3.437 
G01 Z-9 F20
G02 X28.437 Y40 I-2.43 J-2.43 F400
X25 Y36.562 I-3.437 J0 
X21.562 Y40 I0 J3.437 
X25 Y43.437 I3.437 J0 
X27.43 Y42.43 I0 J-3.437 
G01 Z-10 F20
G02 X28.437 Y40 I-2.43 J-2.43 F400
X25 Y36.562 I-3.437 J0 
X21.562 Y40 I0 J3.437 
X25 Y43.437 I3.437 J0 
X27.43 Y42.43 I0 J-3.437 
G00 Z10
G90
X55.437 Y43.187 S7000 M03
Z1
G01 Z-1 F20
X55.437 Y42.312 F400
X53.062 Y42.312 
X53.062 Y43.187 
X55.437 Y43.187 
X56.437 Y44.187 
X56.437 Y41.312 
X52.062 Y41.312 
X52.062 Y44.187 
X56.437 Y44.187 
X57.437 Y45.187 
X57.437 Y40.312 
X51.062 Y40.312 
X51.062 Y45.187 
X57.437 Y45.187 
X58.437 Y46.187 
X58.437 Y39.312 
X50.062 Y39.312 
X50.062 Y46.187 
X58.437 Y46.187 
X59.437 Y47.187 
X59.437 Y38.312 
X49.062 Y38.312 
X49.062 Y47.187 
X59.437 Y47.187 
X60.437 Y48.187 
X60.437 Y37.312 
X48.062 Y37.312 
X48.062 Y48.187 
X60.437 Y48.187 
X61 Y49.187 
G02 X61.437 Y48.75 I0 J-0.437 
G01 X61.437 Y36.75 
G02 X61 Y36.312 I-0.437 J-0 
G01 X47.5 Y36.312 
G02 X47.062 Y36.75 I-0 J0.437 
G01 X47.062 Y48.75 
G02 X47.5 Y49.187 I0.437 J0 
G01 X61 Y49.187 
G00 Z10
X55.437 Y43.187
Z0
G01 Z-2 F20
X55.437 Y42.312 F400
X53.062 Y42.312 
X53.062 Y43.187 
X55.437 Y43.187 
X56.437 Y44.187 
X56.437 Y41.312 
X52.062 Y41.312 
X52.062 Y44.187 
X56.437 Y44.187 
X57.437 Y45.187 
X57.437 Y40.312 
X51.062 Y40.312 
X51.062 Y45.187 
X57.437 Y45.187 
X58.437 Y46.187 
X58.437 Y39.312 
X50.062 Y39.312 
X50.062 Y46.187 
X58.437 Y46.187 
X59.437 Y47.187 
X59.437 Y38.312 
X49.062 Y38.312 
X49.062 Y47.187 
X59.437 Y47.187 
X60.437 Y48.187 
X60.437 Y37.312 
X48.062 Y37.312 
X48.062 Y48.187 
X60.437 Y48.187 
X61 Y49.187 
G02 X61.437 Y48.75 I0 J-0.437 
G01 X61.437 Y36.75 
G02 X61 Y36.312 I-0.437 J-0 
G01 X47.5 Y36.312 
G02 X47.062 Y36.75 I-0 J0.437 
G01 X47.062 Y48.75 
G02 X47.5 Y49.187 I0.437 J0 
G01 X61 Y49.187 
G00 Z10
X55.437 Y43.187
Z-1
G01 Z-3 F20
X55.437 Y42.312 F400
X53.062 Y42.312 
X53.062 Y43.187 
X55.437 Y43.187 
X56.437 Y44.187 
X56.437 Y41.312 
X52.062 Y41.312 
X52.062 Y44.187 
X56.437 Y44.187 
X57.437 Y45.187 
X57.437 Y40.312 
X51.062 Y40.312 
X51.062 Y45.187 
X57.437 Y45.187 
X58.437 Y46.187 
X58.437 Y39.312 
X50.062 Y39.312 
X50.062 Y46.187 
X58.437 Y46.187 
X59.437 Y47.187 
X59.437 Y38.312 
X49.062 Y38.312 
X49.062 Y47.187 
X59.437 Y47.187 
X60.437 Y48.187 
X60.437 Y37.312 
X48.062 Y37.312 
X48.062 Y48.187 
X60.437 Y48.187 
X61 Y49.187 
G02 X61.437 Y48.75 I0 J-0.437 
G01 X61.437 Y36.75 
G02 X61 Y36.312 I-0.437 J-0 
G01 X47.5 Y36.312 
G02 X47.062 Y36.75 I-0 J0.437 
G01 X47.062 Y48.75 
G02 X47.5 Y49.187 I0.437 J0 
G01 X61 Y49.187 
G00 Z10
X55.437 Y43.187
Z-2
G01 Z-4 F20
X55.437 Y42.312 F400
X53.062 Y42.312 
X53.062 Y43.187 
X55.437 Y43.187 
X56.437 Y44.187 
X56.437 Y41.312 
X52.062 Y41.312 
X52.062 Y44.187 
X56.437 Y44.187 
X57.437 Y45.187 
X57.437 Y40.312 
X51.062 Y40.312 
X51.062 Y45.187 
X57.437 Y45.187 
X58.437 Y46.187 
X58.437 Y39.312 
X50.062 Y39.312 
X50.062 Y46.187 
X58.437 Y46.187 
X59.437 Y47.187 
X59.437 Y38.312 
X49.062 Y38.312 
X49.062 Y47.187 
X59.437 Y47.187 
X60.437 Y48.187 
X60.437 Y37.312 
X48.062 Y37.312 
X48.062 Y48.187 
X60.437 Y48.187 
X61 Y49.187 
G02 X61.437 Y48.75 I0 J-0.437 
G01 X61.437 Y36.75 
G02 X61 Y36.312 I-0.437 J-0 
G01 X47.5 Y36.312 
G02 X47.062 Y36.75 I-0 J0.437 
G01 X47.062 Y48.75 
G02 X47.5 Y49.187 I0.437 J0 
G01 X61 Y49.187 
G00 Z10
X55.437 Y43.187
Z-3
G01 Z-5 F20
X55.437 Y42.312 F400
X53.062 Y42.312 
X53.062 Y43.187 
X55.437 Y43.187 
X56.437 Y44.187 
X56.437 Y41.312 
X52.062 Y41.312 
X52.062 Y44.187 
X56.437 Y44.187 
X57.437 Y45.187 
X57.437 Y40.312 
X51.062 Y40.312 
X51.062 Y45.187 
X57.437 Y45.187 
X58.437 Y46.187 
X58.437 Y39.312 
X50.062 Y39.312 
X50.062 Y46.187 
X58.437 Y46.187 
X59.437 Y47.187 
X59.437 Y38.312 
X49.062 Y38.312 
X49.062 Y47.187 
X59.437 Y47.187 
X60.437 Y48.187 
X60.437 Y37.312 
X48.062 Y37.312 
X48.062 Y48.187 
X60.437 Y48.187 
X61 Y49.187 
G02 X61.437 Y48.75 I0 J-0.437 
G01 X61.437 Y36.75 
G02 X61 Y36.312 I-0.437 J-0 
G01 X47.5 Y36.312 
G02 X47.062 Y36.75 I-0 J0.437 
G01 X47.062 Y48.75 
G02 X47.5 Y49.187 I0.437 J0 
G01 X61 Y49.187 
G00 Z10
X55.437 Y43.187
Z-4
G01 Z-6 F20
X55.437 Y42.312 F400
X53.062 Y42.312 
X53.062 Y43.187 
X55.437 Y43.187 
X56.437 Y44.187 
X56.437 Y41.312 
X52.062 Y41.312 
X52.062 Y44.187 
X56.437 Y44.187 
X57.437 Y45.187 
X57.437 Y40.312 
X51.062 Y40.312 
X51.062 Y45.187 
X57.437 Y45.187 
X58.437 Y46.187 
X58.437 Y39.312 
X50.062 Y39.312 
X50.062 Y46.187 
X58.437 Y46.187 
X59.437 Y47.187 
X59.437 Y38.312 
X49.062 Y38.312 
X49.062 Y47.187 
X59.437 Y47.187 
X60.437 Y48.187 
X60.437 Y37.312 
X48.062 Y37.312 
X48.062 Y48.187 
X60.437 Y48.187 
X61 Y49.187 
G02 X61.437 Y48.75 I0 J-0.437 
G01 X61.437 Y36.75 
G02 X61 Y36.312 I-0.437 J-0 
G01 X47.5 Y36.312 
G02 X47.062 Y36.75 I-0 J0.437 
G01 X47.062 Y48.75 
G02 X47.5 Y49.187 I0.437 J0 
G01 X61 Y49.187 
G00 Z10
(ENTITIES Afficheur)
X97.75 Y26.812 S7000 M03
Z1
G01 Z-1 F20
X68.062 Y26.812 F400
X68.062 Y53.187 
X127.437 Y53.187 
X127.437 Y26.812 
X97.75 Y26.812 
Z-2 F20
X68.062 Y26.812 F400
X68.062 Y53.187 
X127.437 Y53.187 
X127.437 Y26.812 
X97.75 Y26.812 
Z-3 F20
X68.062 Y26.812 F400
X68.062 Y53.187 
X127.437 Y53.187 
X127.437 Y26.812 
X97.75 Y26.812 
Z-4 F20
X68.062 Y26.812 F400
X68.062 Y53.187 
X127.437 Y53.187 
X127.437 Y26.812 
X97.75 Y26.812 
Z-5 F20
X68.062 Y26.812 F400
X68.062 Y53.187 
X127.437 Y53.187 
X127.437 Y26.812 
X97.75 Y26.812 
Z-6 F20
X68.062 Y26.812 F400
X68.062 Y53.187 
X127.437 Y53.187 
X127.437 Y26.812 
X97.75 Y26.812 
Z-7 F20
X68.062 Y26.812 F400
X68.062 Y53.187 
X127.437 Y53.187 
X127.437 Y26.812 
X97.75 Y26.812 
Z-8 F20
X68.062 Y26.812 F400
X68.062 Y53.187 
X127.437 Y53.187 
X127.437 Y26.812 
X97.75 Y26.812 
Z-9 F20
X68.062 Y26.812 F400
X68.062 Y53.187 
X127.437 Y53.187 
X127.437 Y26.812 
X97.75 Y26.812 
Z-10 F20
X68.062 Y26.812 F400
X68.062 Y53.187 
X127.437 Y53.187 
X127.437 Y26.812 
X97.75 Y26.812 
G00 Z10
G90
(ENTITIES Exterieur)
X80 Y-1.562 S7000 M03
Z1
G01 Z-1 F20
X160 Y-1.562 Z-1 F400
G03 X161.562 Y0 Z-1 I0 J1.562 
G01 X161.562 Y80 Z-1 
G03 X160 Y81.562 Z-1 I-1.562 J0 
G01 X0 Y81.562 Z-1 
G03 X-1.562 Y80 Z-1 I0 J-1.562 
G01 X-1.562 Y0 Z-1 
G03 X0 Y-1.562 Z-1 I1.562 J0 
G01 X80 Y-1.562 Z-1 
Z-2 F20
X160 Y-1.562 Z-2 F400
G03 X161.562 Y0 Z-2 I0 J1.562 
G01 X161.562 Y80 Z-2 
G03 X160 Y81.562 Z-2 I-1.562 J0 
G01 X0 Y81.562 Z-2 
G03 X-1.562 Y80 Z-2 I0 J-1.562 
G01 X-1.562 Y0 Z-2 
G03 X0 Y-1.562 Z-2 I1.562 J0 
G01 X80 Y-1.562 Z-2 
Z-3 F20
X160 Y-1.562 Z-3 F400
G03 X161.562 Y0 Z-3 I0 J1.562 
G01 X161.562 Y80 Z-3 
G03 X160 Y81.562 Z-3 I-1.562 J0 
G01 X0 Y81.562 Z-3 
G03 X-1.562 Y80 Z-3 I0 J-1.562 
G01 X-1.562 Y0 Z-3 
G03 X0 Y-1.562 Z-3 I1.562 J0 
G01 X80 Y-1.562 Z-3 
Z-4 F20
X160 Y-1.562 Z-4 F400
G03 X161.562 Y0 Z-4 I0 J1.562 
G01 X161.562 Y80 Z-4 
G03 X160 Y81.562 Z-4 I-1.562 J0 
G01 X0 Y81.562 Z-4 
G03 X-1.562 Y80 Z-4 I0 J-1.562 
G01 X-1.562 Y0 Z-4 
G03 X0 Y-1.562 Z-4 I1.562 J0 
G01 X80 Y-1.562 Z-4 
Z-5 F20
X160 Y-1.562 Z-5 F400
G03 X161.562 Y0 Z-5 I0 J1.562 
G01 X161.562 Y80 Z-5 
G03 X160 Y81.562 Z-5 I-1.562 J0 
G01 X0 Y81.562 Z-5 
G03 X-1.562 Y80 Z-5 I0 J-1.562 
G01 X-1.562 Y0 Z-5 
G03 X0 Y-1.562 Z-5 I1.562 J0 
G01 X80 Y-1.562 Z-5 
Z-6 F20
X160 Y-1.562 Z-6 F400
G03 X161.562 Y0 Z-6 I0 J1.562 
G01 X161.562 Y80 Z-6 
G03 X160 Y81.562 Z-6 I-1.562 J0 
G01 X0 Y81.562 Z-6 
G03 X-1.562 Y80 Z-6 I0 J-1.562 
G01 X-1.562 Y0 Z-6 
G03 X0 Y-1.562 Z-6 I1.562 J0 
G01 X80 Y-1.562 Z-6 
Z-7 F20
X160 Y-1.562 Z-7 F400
G03 X161.562 Y0 Z-7 I0 J1.562 
G01 X161.562 Y80 Z-7 
G03 X160 Y81.562 Z-7 I-1.562 J0 
G01 X0 Y81.562 Z-7 
G03 X-1.562 Y80 Z-7 I0 J-1.562 
G01 X-1.562 Y0 Z-7 
G03 X0 Y-1.562 Z-7 I1.562 J0 
G01 X80 Y-1.562 Z-7 
Z-8 F20
X160 Y-1.562 Z-8 F400
G03 X161.562 Y0 Z-8 I0 J1.562 
G01 X161.562 Y80 Z-8 
G03 X160 Y81.562 Z-8 I-1.562 J0 
G01 X0 Y81.562 Z-8 
G03 X-1.562 Y80 Z-8 I0 J-1.562 
G01 X-1.562 Y0 Z-8 
G03 X0 Y-1.562 Z-8 I1.562 J0 
G01 X80 Y-1.562 Z-8 
Z-9 F20
X160 Y-1.562 Z-9 F400
G03 X161.562 Y0 Z-9 I0 J1.562 
G01 X161.562 Y80 Z-9 
G03 X160 Y81.562 Z-9 I-1.562 J0 
G01 X0 Y81.562 Z-9 
G03 X-1.562 Y80 Z-9 I0 J-1.562 
G01 X-1.562 Y0 Z-9 
G03 X0 Y-1.562 Z-9 I1.562 J0 
G01 X80 Y-1.562 Z-9 
X84.033 Y-1.562 Z-9 
X85.033 Y-1.562 Z-10 
X160 Y-1.562 Z-10 
G03 X161.562 Y0 Z-10 I0 J1.562 
G01 X161.562 Y33.076 Z-10 
X161.562 Y34.076 Z-9 
X161.562 Y47.201 Z-9 
X161.562 Y48.201 Z-10 
X161.562 Y80 Z-10 
G03 X160 Y81.562 Z-10 I-1.562 J0 
G01 X83.397 Y81.562 Z-10 
X82.397 Y81.562 Z-9 
X69.272 Y81.562 Z-9 
X68.272 Y81.562 Z-10 
X0 Y81.562 Z-10 
G03 X-1.562 Y80 Z-10 I0 J-1.562 
G01 X-1.562 Y49.541 Z-10 
X-1.562 Y48.541 Z-9 
X-1.562 Y35.416 Z-9 
X-1.562 Y34.416 Z-10 
X-1.562 Y0 Z-10 
G03 X0 Y-1.562 Z-10 I1.562 J0 
G01 X69.908 Y-1.562 Z-10 
X70.908 Y-1.562 Z-9 
X80 Y-1.562 Z-9 
G00 Z10
T0 M06 M02
