(Created with emc2b post processor 2016/12/29 22:36)
(tool change to 1 mm Fraise à Rainurer)
T7 M06 G43
G17 G90 G21
(ENTITIES 0)
G00 X0 Y-12 S7000 M03
Z2
G01 Z-0.8 F100
G02 X-1.7 Y11.878 I0 J12 F600
G01 X-1.7 Y9.5 
G03 X-1.2 Y9 I0.5 J0 
G01 X1.2 Y9 
G03 X1.7 Y9.5 I0 J0.5 
G01 X1.7 Y11.878 
G02 X0 Y-12 I-1.7 J-11.878 
G01 Z-1.6 F100
G02 X-1.7 Y11.878 I0 J12 F600
G01 X-1.7 Y9.5 
G03 X-1.2 Y9 I0.5 J0 
G01 X1.2 Y9 
G03 X1.7 Y9.5 I0 J0.5 
G01 X1.7 Y11.878 
G02 X0 Y-12 I-1.7 J-11.878 
G01 Z-2.4 F100
G02 X-1.7 Y11.878 I0 J12 F600
G01 X-1.7 Y9.5 
G03 X-1.2 Y9 I0.5 J0 
G01 X1.2 Y9 
G03 X1.7 Y9.5 I0 J0.5 
G01 X1.7 Y11.878 
G02 X0 Y-12 I-1.7 J-11.878 
G01 Z-3.2 F100
G02 X-1.7 Y11.878 I0 J12 F600
G01 X-1.7 Y9.5 
G03 X-1.2 Y9 I0.5 J0 
G01 X1.2 Y9 
G03 X1.7 Y9.5 I0 J0.5 
G01 X1.7 Y11.878 
G02 X0 Y-12 I-1.7 J-11.878 
G00 Z10
G90
(Esquisse 2)
X5.078 Y-16.743 S7000 M03
Z2
G01 Z-0.8 F100
X5.41 Y-16.642 F600
G03 X5.708 Y-16.395 I-0.145 J0.478 
G01 X5.741 Y-16.331 
G03 X5.791 Y-16.18 I-0.443 J0.231 
X5.861 Y-15.642 I-8.019 J1.306 
X5.89 Y-15.092 I-6.448 J0.612 
X5.875 Y-14.544 I-7.565 J0.072 
X5.764 Y-13.963 I-2.345 J-0.147 
G01 X5.797 Y-13.949 
G03 X6.129 Y-14.439 I2.095 J1.064 
X6.506 Y-14.836 I5.675 J5.003 
X6.916 Y-15.205 I4.536 J4.623 
X7.346 Y-15.537 I5.176 J6.263 
X7.488 Y-15.608 I0.292 J0.405 
G01 X7.556 Y-15.629 
G03 X7.942 Y-15.593 I0.15 J0.476 
G01 X8.553 Y-15.267 
G03 X8.797 Y-14.966 I-0.235 J0.44 
G01 X8.817 Y-14.897 
G03 X8.837 Y-14.74 I-0.479 J0.14 
X8.8 Y-14.198 I-8.12 J-0.282 
X8.721 Y-13.652 I-6.443 J-0.657 
X8.6 Y-13.118 I-7.434 J-1.405 
X8.377 Y-12.57 I-2.271 J-0.602 
G01 X8.407 Y-12.55 
G03 X8.829 Y-12.965 I1.847 J1.453 
X9.276 Y-13.282 I4.59 J6.014 
X9.75 Y-13.564 I3.546 J5.419 
X10.236 Y-13.805 I3.854 J7.152 
X10.389 Y-13.847 I0.207 J0.454 
G01 X10.46 Y-13.855 
G03 X10.831 Y-13.744 I0.054 J0.497 
G01 X11.367 Y-13.305 
G03 X11.548 Y-12.962 I-0.317 J0.386 
G01 X11.554 Y-12.891 
G03 X11.543 Y-12.732 I-0.498 J0.043 
X11.401 Y-12.209 I-7.909 J-1.861 
X11.217 Y-11.689 I-6.191 J-1.901 
X10.994 Y-11.188 I-7.017 J-2.828 
X10.668 Y-10.694 I-2.11 J-1.034 
G01 X10.694 Y-10.668 
G03 X11.188 Y-10.994 I1.528 J1.785 
X11.689 Y-11.217 I3.328 J6.794 
X12.209 Y-11.401 I2.421 J6.007 
X12.732 Y-11.543 I2.385 J7.767 
X12.891 Y-11.554 I0.114 J0.486 
G01 X12.962 Y-11.548 
G03 X13.305 Y-11.367 I-0.043 J0.498 
G01 X13.744 Y-10.831 
G03 X13.855 Y-10.46 I-0.386 J0.317 
G01 X13.847 Y-10.389 
G03 X13.805 Y-10.236 I-0.497 J-0.054 
X13.564 Y-9.75 I-7.393 J-3.368 
X13.282 Y-9.276 I-5.701 J-3.072 
X12.965 Y-8.829 I-6.33 J-4.143 
X12.55 Y-8.407 I-1.868 J-1.425 
G01 X12.57 Y-8.377 
G03 X13.118 Y-8.6 I1.15 J2.049 
X13.652 Y-8.721 I1.939 J7.313 
X14.198 Y-8.8 I1.202 J6.364 
X14.74 Y-8.837 I0.824 J8.083 
X14.897 Y-8.817 I0.017 J0.499 
G01 X14.966 Y-8.797 
G03 X15.267 Y-8.553 I-0.14 J0.479 
G01 X15.593 Y-7.942 
G03 X15.629 Y-7.556 I-0.44 J0.235 
G01 X15.608 Y-7.488 
G03 X15.537 Y-7.346 I-0.476 J-0.15 
X15.205 Y-6.916 I-6.594 J-4.746 
X14.836 Y-6.506 I-4.992 J-4.126 
X14.439 Y-6.129 I-5.4 J-5.298 
X13.949 Y-5.797 I-1.554 J-1.763 
G01 X13.963 Y-5.764 
G03 X14.544 Y-5.875 I0.728 J2.234 
X15.092 Y-5.89 I0.475 J7.551 
X15.642 Y-5.861 I-0.061 J6.476 
X16.18 Y-5.791 I-0.768 J8.088 
X16.331 Y-5.741 I-0.08 J0.493 
G01 X16.395 Y-5.708 
G03 X16.642 Y-5.41 I-0.231 J0.443 
G01 X16.843 Y-4.747 
G03 X16.803 Y-4.361 I-0.478 J0.145 
G01 X16.769 Y-4.299 
G03 X16.671 Y-4.173 I-0.438 J-0.24 
X16.262 Y-3.817 I-5.541 J-5.941 
X15.82 Y-3.487 I-4.091 J-5.021 
X15.357 Y-3.195 I-4.263 J-6.25 
X14.812 Y-2.964 I-1.18 J-2.032 
G01 X14.819 Y-2.929 
G03 X15.411 Y-2.925 I0.278 J2.333 
X15.951 Y-2.832 I-1.007 J7.498 
X16.485 Y-2.696 I-1.324 J6.34 
X17 Y-2.523 I-2.331 J7.783 
X17.138 Y-2.445 I-0.175 J0.468 
G01 X17.193 Y-2.4 
G03 X17.378 Y-2.059 I-0.313 J0.389 
G01 X17.446 Y-1.37 
G03 X17.331 Y-0.999 I-0.497 J0.049 
G01 X17.285 Y-0.945 
G03 X17.165 Y-0.841 I-0.383 J-0.321 
X16.695 Y-0.571 I-4.276 J-6.908 
X16.197 Y-0.333 I-3.033 J-5.722 
X15.685 Y-0.137 I-2.962 J-6.962 
X15.106 Y-0.018 I-0.761 J-2.223 
G01 X15.106 Y0.018 
G03 X15.685 Y0.137 I-0.181 J2.343 
X16.197 Y0.333 I-2.45 J7.158 
X16.695 Y0.571 I-2.535 J5.96 
X17.165 Y0.841 I-3.805 J7.178 
X17.285 Y0.945 I-0.263 J0.425 
G01 X17.331 Y0.999 
G03 X17.446 Y1.37 I-0.383 J0.321 
G01 X17.378 Y2.059 
G03 X17.193 Y2.4 I-0.497 J-0.049 
G01 X17.138 Y2.445 
G03 X17 Y2.523 I-0.313 J-0.389 
X16.485 Y2.696 I-2.846 J-7.61 
X15.951 Y2.832 I-1.858 J-6.204 
X15.411 Y2.925 I-1.546 J-7.406 
X14.819 Y2.929 I-0.312 J-2.329 
G01 X14.812 Y2.964 
G03 X15.357 Y3.195 I-0.635 J2.262 
X15.82 Y3.487 I-3.8 J6.542 
X16.262 Y3.817 I-3.649 J5.35 
X16.671 Y4.173 I-5.132 J6.298 
X16.769 Y4.299 I-0.341 J0.365 
G01 X16.803 Y4.361 
G03 X16.843 Y4.747 I-0.438 J0.24 
G01 X16.642 Y5.41 
G03 X16.395 Y5.708 I-0.478 J-0.145 
G01 X16.331 Y5.741 
G03 X16.18 Y5.791 I-0.231 J-0.443 
X15.642 Y5.861 I-1.306 J-8.019 
X15.092 Y5.89 I-0.612 J-6.448 
X14.544 Y5.875 I-0.072 J-7.565 
X13.963 Y5.764 I0.147 J-2.345 
G01 X13.949 Y5.797 
G03 X14.439 Y6.129 I-1.064 J2.095 
X14.836 Y6.506 I-5.003 J5.675 
X15.205 Y6.916 I-4.623 J4.536 
X15.537 Y7.346 I-6.263 J5.176 
X15.608 Y7.488 I-0.405 J0.292 
G01 X15.629 Y7.556 
G03 X15.593 Y7.942 I-0.476 J0.15 
G01 X15.267 Y8.553 
G03 X14.966 Y8.797 I-0.44 J-0.235 
G01 X14.897 Y8.817 
G03 X14.74 Y8.837 I-0.14 J-0.479 
X14.198 Y8.8 I0.282 J-8.12 
X13.652 Y8.721 I0.657 J-6.443 
X13.118 Y8.6 I1.405 J-7.434 
X12.57 Y8.377 I0.602 J-2.271 
G01 X12.55 Y8.407 
G03 X12.965 Y8.829 I-1.453 J1.847 
X13.282 Y9.276 I-6.014 J4.59 
X13.564 Y9.75 I-5.419 J3.546 
X13.805 Y10.236 I-7.152 J3.854 
X13.847 Y10.389 I-0.454 J0.207 
G01 X13.855 Y10.46 
G03 X13.744 Y10.831 I-0.497 J0.054 
G01 X13.305 Y11.367 
G03 X12.962 Y11.548 I-0.386 J-0.317 
G01 X12.891 Y11.554 
G03 X12.732 Y11.543 I-0.043 J-0.498 
X12.209 Y11.401 I1.861 J-7.909 
X11.689 Y11.217 I1.901 J-6.191 
X11.188 Y10.994 I2.828 J-7.017 
X10.694 Y10.668 I1.034 J-2.11 
G01 X10.668 Y10.694 
G03 X10.994 Y11.188 I-1.785 J1.528 
X11.217 Y11.689 I-6.794 J3.328 
X11.401 Y12.209 I-6.007 J2.421 
X11.543 Y12.732 I-7.767 J2.385 
X11.554 Y12.891 I-0.486 J0.114 
G01 X11.548 Y12.962 
G03 X11.367 Y13.305 I-0.498 J-0.043 
G01 X10.831 Y13.744 
G03 X10.46 Y13.855 I-0.317 J-0.386 
G01 X10.389 Y13.847 
G03 X10.236 Y13.805 I0.054 J-0.497 
X9.75 Y13.564 I3.368 J-7.393 
X9.276 Y13.282 I3.072 J-5.701 
X8.829 Y12.965 I4.143 J-6.33 
X8.407 Y12.55 I1.425 J-1.868 
G01 X8.377 Y12.57 
G03 X8.6 Y13.118 I-2.049 J1.15 
X8.721 Y13.652 I-7.313 J1.939 
X8.8 Y14.198 I-6.364 J1.202 
X8.837 Y14.74 I-8.083 J0.824 
X8.817 Y14.897 I-0.499 J0.017 
G01 X8.797 Y14.966 
G03 X8.553 Y15.267 I-0.479 J-0.14 
G01 X7.942 Y15.593 
G03 X7.556 Y15.629 I-0.235 J-0.44 
G01 X7.488 Y15.608 
G03 X7.346 Y15.537 I0.15 J-0.476 
X6.916 Y15.205 I4.746 J-6.594 
X6.506 Y14.836 I4.126 J-4.992 
X6.129 Y14.439 I5.298 J-5.4 
X5.797 Y13.949 I1.763 J-1.554 
G01 X5.764 Y13.963 
G03 X5.875 Y14.544 I-2.234 J0.728 
X5.89 Y15.092 I-7.551 J0.475 
X5.861 Y15.642 I-6.476 J-0.061 
X5.791 Y16.18 I-8.088 J-0.768 
X5.741 Y16.331 I-0.493 J-0.08 
G01 X5.708 Y16.395 
G03 X5.41 Y16.642 I-0.443 J-0.231 
G01 X4.747 Y16.843 
G03 X4.361 Y16.803 I-0.145 J-0.478 
G01 X4.299 Y16.769 
G03 X4.173 Y16.671 I0.24 J-0.438 
X3.817 Y16.262 I5.941 J-5.541 
X3.487 Y15.82 I5.021 J-4.091 
X3.195 Y15.357 I6.25 J-4.263 
X2.964 Y14.812 I2.032 J-1.18 
G01 X2.929 Y14.819 
G03 X2.925 Y15.411 I-2.333 J0.278 
X2.832 Y15.951 I-7.498 J-1.007 
X2.696 Y16.485 I-6.34 J-1.324 
X2.523 Y17 I-7.783 J-2.331 
X2.445 Y17.138 I-0.468 J-0.175 
G01 X2.4 Y17.193 
G03 X2.059 Y17.378 I-0.389 J-0.313 
G01 X1.37 Y17.446 
G03 X0.999 Y17.331 I-0.049 J-0.497 
G01 X0.945 Y17.285 
G03 X0.841 Y17.165 I0.321 J-0.383 
X0.571 Y16.695 I6.908 J-4.276 
X0.333 Y16.197 I5.722 J-3.033 
X0.137 Y15.685 I6.962 J-2.962 
X0.018 Y15.106 I2.223 J-0.761 
G01 X-0.018 Y15.106 
G03 X-0.137 Y15.685 I-2.343 J-0.181 
X-0.333 Y16.197 I-7.158 J-2.45 
X-0.571 Y16.695 I-5.96 J-2.535 
X-0.841 Y17.165 I-7.178 J-3.805 
X-0.945 Y17.285 I-0.425 J-0.263 
G01 X-0.999 Y17.331 
G03 X-1.37 Y17.446 I-0.321 J-0.383 
G01 X-2.059 Y17.378 
G03 X-2.4 Y17.193 I0.049 J-0.497 
G01 X-2.445 Y17.138 
G03 X-2.523 Y17 I0.389 J-0.313 
X-2.696 Y16.485 I7.61 J-2.846 
X-2.832 Y15.951 I6.204 J-1.858 
X-2.925 Y15.411 I7.406 J-1.546 
X-2.929 Y14.819 I2.329 J-0.312 
G01 X-2.964 Y14.812 
G03 X-3.195 Y15.357 I-2.262 J-0.635 
X-3.487 Y15.82 I-6.542 J-3.8 
X-3.817 Y16.262 I-5.35 J-3.649 
X-4.173 Y16.671 I-6.298 J-5.132 
X-4.299 Y16.769 I-0.365 J-0.341 
G01 X-4.361 Y16.803 
G03 X-4.747 Y16.843 I-0.24 J-0.438 
G01 X-5.41 Y16.642 
G03 X-5.708 Y16.395 I0.145 J-0.478 
G01 X-5.741 Y16.331 
G03 X-5.791 Y16.18 I0.443 J-0.231 
X-5.861 Y15.642 I8.019 J-1.306 
X-5.89 Y15.092 I6.448 J-0.612 
X-5.875 Y14.544 I7.565 J-0.072 
X-5.764 Y13.963 I2.345 J0.147 
G01 X-5.797 Y13.949 
G03 X-6.129 Y14.439 I-2.095 J-1.064 
X-6.506 Y14.836 I-5.675 J-5.003 
X-6.916 Y15.205 I-4.536 J-4.623 
X-7.346 Y15.537 I-5.176 J-6.263 
X-7.488 Y15.608 I-0.292 J-0.405 
G01 X-7.556 Y15.629 
G03 X-7.942 Y15.593 I-0.15 J-0.476 
G01 X-8.553 Y15.267 
G03 X-8.797 Y14.966 I0.235 J-0.44 
G01 X-8.817 Y14.897 
G03 X-8.837 Y14.74 I0.479 J-0.14 
X-8.8 Y14.198 I8.12 J0.282 
X-8.721 Y13.652 I6.443 J0.657 
X-8.6 Y13.118 I7.434 J1.405 
X-8.377 Y12.57 I2.271 J0.602 
G01 X-8.407 Y12.55 
G03 X-8.829 Y12.965 I-1.847 J-1.452 
X-9.276 Y13.282 I-4.59 J-6.014 
X-9.75 Y13.564 I-3.546 J-5.419 
X-10.236 Y13.805 I-3.854 J-7.152 
X-10.389 Y13.847 I-0.207 J-0.454 
G01 X-10.46 Y13.855 
G03 X-10.831 Y13.744 I-0.054 J-0.497 
G01 X-11.367 Y13.305 
G03 X-11.548 Y12.962 I0.317 J-0.386 
G01 X-11.554 Y12.891 
G03 X-11.543 Y12.732 I0.498 J-0.043 
X-11.401 Y12.209 I7.909 J1.861 
X-11.217 Y11.689 I6.191 J1.901 
X-10.994 Y11.188 I7.017 J2.828 
X-10.668 Y10.694 I2.11 J1.034 
G01 X-10.694 Y10.668 
G03 X-11.188 Y10.994 I-1.528 J-1.785 
X-11.689 Y11.217 I-3.328 J-6.794 
X-12.209 Y11.401 I-2.421 J-6.007 
X-12.732 Y11.543 I-2.385 J-7.767 
X-12.891 Y11.554 I-0.114 J-0.486 
G01 X-12.962 Y11.548 
G03 X-13.305 Y11.367 I0.043 J-0.498 
G01 X-13.744 Y10.831 
G03 X-13.855 Y10.46 I0.386 J-0.317 
G01 X-13.847 Y10.389 
G03 X-13.805 Y10.236 I0.497 J0.054 
X-13.564 Y9.75 I7.393 J3.368 
X-13.282 Y9.276 I5.701 J3.072 
X-12.965 Y8.829 I6.33 J4.143 
X-12.55 Y8.407 I1.868 J1.426 
G01 X-12.57 Y8.377 
G03 X-13.118 Y8.6 I-1.15 J-2.049 
X-13.652 Y8.721 I-1.939 J-7.313 
X-14.198 Y8.8 I-1.202 J-6.364 
X-14.74 Y8.837 I-0.824 J-8.083 
X-14.897 Y8.817 I-0.017 J-0.499 
G01 X-14.966 Y8.797 
G03 X-15.267 Y8.553 I0.14 J-0.479 
G01 X-15.593 Y7.942 
G03 X-15.629 Y7.556 I0.44 J-0.235 
G01 X-15.608 Y7.488 
G03 X-15.537 Y7.346 I0.476 J0.15 
X-15.205 Y6.916 I6.594 J4.746 
X-14.836 Y6.506 I4.992 J4.126 
X-14.439 Y6.129 I5.4 J5.298 
X-13.949 Y5.797 I1.554 J1.763 
G01 X-13.963 Y5.764 
G03 X-14.544 Y5.875 I-0.728 J-2.234 
X-15.092 Y5.89 I-0.475 J-7.551 
X-15.642 Y5.861 I0.061 J-6.476 
X-16.18 Y5.791 I0.768 J-8.088 
X-16.331 Y5.741 I0.08 J-0.493 
G01 X-16.395 Y5.708 
G03 X-16.642 Y5.41 I0.231 J-0.443 
G01 X-16.843 Y4.747 
G03 X-16.803 Y4.361 I0.478 J-0.145 
G01 X-16.769 Y4.299 
G03 X-16.671 Y4.173 I0.438 J0.24 
X-16.262 Y3.817 I5.541 J5.941 
X-15.82 Y3.487 I4.091 J5.021 
X-15.357 Y3.195 I4.263 J6.25 
X-14.812 Y2.964 I1.18 J2.032 
G01 X-14.819 Y2.929 
G03 X-15.411 Y2.925 I-0.278 J-2.333 
X-15.951 Y2.832 I1.007 J-7.498 
X-16.485 Y2.696 I1.324 J-6.34 
X-17 Y2.523 I2.331 J-7.783 
X-17.138 Y2.445 I0.175 J-0.468 
G01 X-17.193 Y2.4 
G03 X-17.378 Y2.059 I0.313 J-0.389 
G01 X-17.446 Y1.37 
G03 X-17.331 Y0.999 I0.497 J-0.049 
G01 X-17.285 Y0.945 
G03 X-17.165 Y0.841 I0.383 J0.321 
X-16.695 Y0.571 I4.276 J6.908 
X-16.197 Y0.333 I3.033 J5.722 
X-15.685 Y0.137 I2.962 J6.962 
X-15.106 Y0.018 I0.761 J2.223 
G01 X-15.106 Y-0.018 
G03 X-15.685 Y-0.137 I0.181 J-2.343 
X-16.197 Y-0.333 I2.45 J-7.158 
X-16.695 Y-0.571 I2.535 J-5.96 
X-17.165 Y-0.841 I3.805 J-7.178 
X-17.285 Y-0.945 I0.263 J-0.425 
G01 X-17.331 Y-0.999 
G03 X-17.446 Y-1.37 I0.383 J-0.321 
G01 X-17.378 Y-2.059 
G03 X-17.193 Y-2.4 I0.497 J0.049 
G01 X-17.138 Y-2.445 
G03 X-17 Y-2.523 I0.313 J0.389 
X-16.485 Y-2.696 I2.846 J7.61 
X-15.951 Y-2.832 I1.858 J6.204 
X-15.411 Y-2.925 I1.546 J7.406 
X-14.819 Y-2.929 I0.312 J2.329 
G01 X-14.812 Y-2.964 
G03 X-15.357 Y-3.195 I0.635 J-2.262 
X-15.82 Y-3.487 I3.8 J-6.542 
X-16.262 Y-3.817 I3.649 J-5.35 
X-16.671 Y-4.173 I5.132 J-6.298 
X-16.769 Y-4.299 I0.341 J-0.365 
G01 X-16.803 Y-4.361 
G03 X-16.843 Y-4.747 I0.438 J-0.24 
G01 X-16.642 Y-5.41 
G03 X-16.395 Y-5.708 I0.478 J0.145 
G01 X-16.331 Y-5.741 
G03 X-16.18 Y-5.791 I0.231 J0.443 
X-15.642 Y-5.861 I1.306 J8.019 
X-15.092 Y-5.89 I0.612 J6.448 
X-14.544 Y-5.875 I0.072 J7.565 
X-13.963 Y-5.764 I-0.147 J2.345 
G01 X-13.949 Y-5.797 
G03 X-14.439 Y-6.129 I1.064 J-2.095 
X-14.836 Y-6.506 I5.003 J-5.675 
X-15.205 Y-6.916 I4.623 J-4.536 
X-15.537 Y-7.346 I6.263 J-5.176 
X-15.608 Y-7.488 I0.405 J-0.292 
G01 X-15.629 Y-7.556 
G03 X-15.593 Y-7.942 I0.476 J-0.15 
G01 X-15.267 Y-8.553 
G03 X-14.966 Y-8.797 I0.44 J0.235 
G01 X-14.897 Y-8.817 
G03 X-14.74 Y-8.837 I0.14 J0.479 
X-14.198 Y-8.8 I-0.282 J8.12 
X-13.652 Y-8.721 I-0.657 J6.443 
X-13.118 Y-8.6 I-1.405 J7.434 
X-12.57 Y-8.377 I-0.602 J2.271 
G01 X-12.55 Y-8.407 
G03 X-12.965 Y-8.829 I1.453 J-1.847 
X-13.282 Y-9.276 I6.014 J-4.59 
X-13.564 Y-9.75 I5.419 J-3.546 
X-13.805 Y-10.236 I7.152 J-3.854 
X-13.847 Y-10.389 I0.454 J-0.207 
G01 X-13.855 Y-10.46 
G03 X-13.744 Y-10.831 I0.497 J-0.054 
G01 X-13.305 Y-11.367 
G03 X-12.962 Y-11.548 I0.386 J0.317 
G01 X-12.891 Y-11.554 
G03 X-12.732 Y-11.543 I0.043 J0.498 
X-12.209 Y-11.401 I-1.861 J7.909 
X-11.689 Y-11.217 I-1.901 J6.191 
X-11.188 Y-10.994 I-2.828 J7.018 
X-10.694 Y-10.668 I-1.034 J2.11 
G01 X-10.668 Y-10.694 
G03 X-10.994 Y-11.188 I1.785 J-1.528 
X-11.217 Y-11.689 I6.795 J-3.328 
X-11.401 Y-12.209 I6.007 J-2.421 
X-11.543 Y-12.732 I7.767 J-2.385 
X-11.554 Y-12.891 I0.486 J-0.114 
G01 X-11.548 Y-12.962 
G03 X-11.367 Y-13.305 I0.498 J0.043 
G01 X-10.831 Y-13.744 
G03 X-10.46 Y-13.855 I0.317 J0.386 
G01 X-10.389 Y-13.847 
G03 X-10.236 Y-13.805 I-0.054 J0.497 
X-9.75 Y-13.564 I-3.368 J7.393 
X-9.276 Y-13.282 I-3.072 J5.701 
X-8.829 Y-12.965 I-4.143 J6.33 
X-8.407 Y-12.55 I-1.426 J1.868 
G01 X-8.377 Y-12.57 
G03 X-8.6 Y-13.118 I2.049 J-1.15 
X-8.721 Y-13.652 I7.313 J-1.939 
X-8.8 Y-14.198 I6.364 J-1.202 
X-8.837 Y-14.74 I8.083 J-0.824 
X-8.817 Y-14.897 I0.499 J-0.017 
G01 X-8.797 Y-14.966 
G03 X-8.553 Y-15.267 I0.479 J0.14 
G01 X-7.942 Y-15.593 
G03 X-7.556 Y-15.629 I0.235 J0.44 
G01 X-7.488 Y-15.608 
G03 X-7.346 Y-15.537 I-0.15 J0.476 
X-6.916 Y-15.205 I-4.746 J6.594 
X-6.506 Y-14.836 I-4.126 J4.992 
X-6.129 Y-14.439 I-5.298 J5.4 
X-5.797 Y-13.949 I-1.763 J1.554 
G01 X-5.764 Y-13.963 
G03 X-5.875 Y-14.544 I2.234 J-0.728 
X-5.89 Y-15.092 I7.551 J-0.475 
X-5.861 Y-15.642 I6.476 J0.061 
X-5.791 Y-16.18 I8.088 J0.768 
X-5.741 Y-16.331 I0.493 J0.08 
G01 X-5.708 Y-16.395 
G03 X-5.41 Y-16.642 I0.443 J0.231 
G01 X-4.747 Y-16.843 
G03 X-4.361 Y-16.803 I0.145 J0.478 
G01 X-4.299 Y-16.769 
G03 X-4.173 Y-16.671 I-0.24 J0.438 
X-3.817 Y-16.262 I-5.941 J5.541 
X-3.487 Y-15.82 I-5.021 J4.091 
X-3.195 Y-15.357 I-6.25 J4.263 
X-2.964 Y-14.812 I-2.032 J1.18 
G01 X-2.929 Y-14.819 
G03 X-2.925 Y-15.411 I2.333 J-0.278 
X-2.832 Y-15.951 I7.498 J1.007 
X-2.696 Y-16.485 I6.34 J1.324 
X-2.523 Y-17 I7.783 J2.331 
X-2.445 Y-17.138 I0.468 J0.175 
G01 X-2.4 Y-17.193 
G03 X-2.059 Y-17.378 I0.389 J0.313 
G01 X-1.37 Y-17.446 
G03 X-0.999 Y-17.331 I0.049 J0.497 
G01 X-0.945 Y-17.285 
G03 X-0.841 Y-17.165 I-0.321 J0.383 
X-0.571 Y-16.695 I-6.908 J4.276 
X-0.333 Y-16.197 I-5.722 J3.033 
X-0.137 Y-15.685 I-6.962 J2.962 
X-0.018 Y-15.106 I-2.223 J0.761 
G01 X0.018 Y-15.106 
G03 X0.137 Y-15.685 I2.343 J0.181 
X0.333 Y-16.197 I7.158 J2.45 
X0.571 Y-16.695 I5.96 J2.535 
X0.841 Y-17.165 I7.178 J3.805 
X0.945 Y-17.285 I0.425 J0.263 
G01 X0.999 Y-17.331 
G03 X1.37 Y-17.446 I0.321 J0.383 
G01 X2.059 Y-17.378 
G03 X2.4 Y-17.193 I-0.049 J0.497 
G01 X2.445 Y-17.138 
G03 X2.523 Y-17 I-0.389 J0.313 
X2.696 Y-16.485 I-7.61 J2.846 
X2.832 Y-15.951 I-6.204 J1.858 
X2.925 Y-15.411 I-7.406 J1.546 
X2.929 Y-14.819 I-2.329 J0.312 
G01 X2.964 Y-14.812 
G03 X3.195 Y-15.357 I2.262 J0.635 
X3.487 Y-15.82 I6.542 J3.8 
X3.817 Y-16.262 I5.35 J3.649 
X4.173 Y-16.671 I6.298 J5.132 
X4.299 Y-16.769 I0.365 J0.341 
G01 X4.361 Y-16.803 
G03 X4.747 Y-16.843 I0.24 J0.438 
G01 X5.078 Y-16.743 
Z-1.6 F100
X5.41 Y-16.642 F600
G03 X5.708 Y-16.395 I-0.145 J0.478 
G01 X5.741 Y-16.331 
G03 X5.791 Y-16.18 I-0.443 J0.231 
X5.861 Y-15.642 I-8.019 J1.306 
X5.89 Y-15.092 I-6.448 J0.612 
X5.875 Y-14.544 I-7.565 J0.072 
X5.764 Y-13.963 I-2.345 J-0.147 
G01 X5.797 Y-13.949 
G03 X6.129 Y-14.439 I2.095 J1.064 
X6.506 Y-14.836 I5.675 J5.003 
X6.916 Y-15.205 I4.536 J4.623 
X7.346 Y-15.537 I5.176 J6.263 
X7.488 Y-15.608 I0.292 J0.405 
G01 X7.556 Y-15.629 
G03 X7.942 Y-15.593 I0.15 J0.476 
G01 X8.553 Y-15.267 
G03 X8.797 Y-14.966 I-0.235 J0.44 
G01 X8.817 Y-14.897 
G03 X8.837 Y-14.74 I-0.479 J0.14 
X8.8 Y-14.198 I-8.12 J-0.282 
X8.721 Y-13.652 I-6.443 J-0.657 
X8.6 Y-13.118 I-7.434 J-1.405 
X8.377 Y-12.57 I-2.271 J-0.602 
G01 X8.407 Y-12.55 
G03 X8.829 Y-12.965 I1.847 J1.453 
X9.276 Y-13.282 I4.59 J6.014 
X9.75 Y-13.564 I3.546 J5.419 
X10.236 Y-13.805 I3.854 J7.152 
X10.389 Y-13.847 I0.207 J0.454 
G01 X10.46 Y-13.855 
G03 X10.831 Y-13.744 I0.054 J0.497 
G01 X11.367 Y-13.305 
G03 X11.548 Y-12.962 I-0.317 J0.386 
G01 X11.554 Y-12.891 
G03 X11.543 Y-12.732 I-0.498 J0.043 
X11.401 Y-12.209 I-7.909 J-1.861 
X11.217 Y-11.689 I-6.191 J-1.901 
X10.994 Y-11.188 I-7.017 J-2.828 
X10.668 Y-10.694 I-2.11 J-1.034 
G01 X10.694 Y-10.668 
G03 X11.188 Y-10.994 I1.528 J1.785 
X11.689 Y-11.217 I3.328 J6.794 
X12.209 Y-11.401 I2.421 J6.007 
X12.732 Y-11.543 I2.385 J7.767 
X12.891 Y-11.554 I0.114 J0.486 
G01 X12.962 Y-11.548 
G03 X13.305 Y-11.367 I-0.043 J0.498 
G01 X13.744 Y-10.831 
G03 X13.855 Y-10.46 I-0.386 J0.317 
G01 X13.847 Y-10.389 
G03 X13.805 Y-10.236 I-0.497 J-0.054 
X13.564 Y-9.75 I-7.393 J-3.368 
X13.282 Y-9.276 I-5.701 J-3.072 
X12.965 Y-8.829 I-6.33 J-4.143 
X12.55 Y-8.407 I-1.868 J-1.425 
G01 X12.57 Y-8.377 
G03 X13.118 Y-8.6 I1.15 J2.049 
X13.652 Y-8.721 I1.939 J7.313 
X14.198 Y-8.8 I1.202 J6.364 
X14.74 Y-8.837 I0.824 J8.083 
X14.897 Y-8.817 I0.017 J0.499 
G01 X14.966 Y-8.797 
G03 X15.267 Y-8.553 I-0.14 J0.479 
G01 X15.593 Y-7.942 
G03 X15.629 Y-7.556 I-0.44 J0.235 
G01 X15.608 Y-7.488 
G03 X15.537 Y-7.346 I-0.476 J-0.15 
X15.205 Y-6.916 I-6.594 J-4.746 
X14.836 Y-6.506 I-4.992 J-4.126 
X14.439 Y-6.129 I-5.4 J-5.298 
X13.949 Y-5.797 I-1.554 J-1.763 
G01 X13.963 Y-5.764 
G03 X14.544 Y-5.875 I0.728 J2.234 
X15.092 Y-5.89 I0.475 J7.551 
X15.642 Y-5.861 I-0.061 J6.476 
X16.18 Y-5.791 I-0.768 J8.088 
X16.331 Y-5.741 I-0.08 J0.493 
G01 X16.395 Y-5.708 
G03 X16.642 Y-5.41 I-0.231 J0.443 
G01 X16.843 Y-4.747 
G03 X16.803 Y-4.361 I-0.478 J0.145 
G01 X16.769 Y-4.299 
G03 X16.671 Y-4.173 I-0.438 J-0.24 
X16.262 Y-3.817 I-5.541 J-5.941 
X15.82 Y-3.487 I-4.091 J-5.021 
X15.357 Y-3.195 I-4.263 J-6.25 
X14.812 Y-2.964 I-1.18 J-2.032 
G01 X14.819 Y-2.929 
G03 X15.411 Y-2.925 I0.278 J2.333 
X15.951 Y-2.832 I-1.007 J7.498 
X16.485 Y-2.696 I-1.324 J6.34 
X17 Y-2.523 I-2.331 J7.783 
X17.138 Y-2.445 I-0.175 J0.468 
G01 X17.193 Y-2.4 
G03 X17.378 Y-2.059 I-0.313 J0.389 
G01 X17.446 Y-1.37 
G03 X17.331 Y-0.999 I-0.497 J0.049 
G01 X17.285 Y-0.945 
G03 X17.165 Y-0.841 I-0.383 J-0.321 
X16.695 Y-0.571 I-4.276 J-6.908 
X16.197 Y-0.333 I-3.033 J-5.722 
X15.685 Y-0.137 I-2.962 J-6.962 
X15.106 Y-0.018 I-0.761 J-2.223 
G01 X15.106 Y0.018 
G03 X15.685 Y0.137 I-0.181 J2.343 
X16.197 Y0.333 I-2.45 J7.158 
X16.695 Y0.571 I-2.535 J5.96 
X17.165 Y0.841 I-3.805 J7.178 
X17.285 Y0.945 I-0.263 J0.425 
G01 X17.331 Y0.999 
G03 X17.446 Y1.37 I-0.383 J0.321 
G01 X17.378 Y2.059 
G03 X17.193 Y2.4 I-0.497 J-0.049 
G01 X17.138 Y2.445 
G03 X17 Y2.523 I-0.313 J-0.389 
X16.485 Y2.696 I-2.846 J-7.61 
X15.951 Y2.832 I-1.858 J-6.204 
X15.411 Y2.925 I-1.546 J-7.406 
X14.819 Y2.929 I-0.312 J-2.329 
G01 X14.812 Y2.964 
G03 X15.357 Y3.195 I-0.635 J2.262 
X15.82 Y3.487 I-3.8 J6.542 
X16.262 Y3.817 I-3.649 J5.35 
X16.671 Y4.173 I-5.132 J6.298 
X16.769 Y4.299 I-0.341 J0.365 
G01 X16.803 Y4.361 
G03 X16.843 Y4.747 I-0.438 J0.24 
G01 X16.642 Y5.41 
G03 X16.395 Y5.708 I-0.478 J-0.145 
G01 X16.331 Y5.741 
G03 X16.18 Y5.791 I-0.231 J-0.443 
X15.642 Y5.861 I-1.306 J-8.019 
X15.092 Y5.89 I-0.612 J-6.448 
X14.544 Y5.875 I-0.072 J-7.565 
X13.963 Y5.764 I0.147 J-2.345 
G01 X13.949 Y5.797 
G03 X14.439 Y6.129 I-1.064 J2.095 
X14.836 Y6.506 I-5.003 J5.675 
X15.205 Y6.916 I-4.623 J4.536 
X15.537 Y7.346 I-6.263 J5.176 
X15.608 Y7.488 I-0.405 J0.292 
G01 X15.629 Y7.556 
G03 X15.593 Y7.942 I-0.476 J0.15 
G01 X15.267 Y8.553 
G03 X14.966 Y8.797 I-0.44 J-0.235 
G01 X14.897 Y8.817 
G03 X14.74 Y8.837 I-0.14 J-0.479 
X14.198 Y8.8 I0.282 J-8.12 
X13.652 Y8.721 I0.657 J-6.443 
X13.118 Y8.6 I1.405 J-7.434 
X12.57 Y8.377 I0.602 J-2.271 
G01 X12.55 Y8.407 
G03 X12.965 Y8.829 I-1.453 J1.847 
X13.282 Y9.276 I-6.014 J4.59 
X13.564 Y9.75 I-5.419 J3.546 
X13.805 Y10.236 I-7.152 J3.854 
X13.847 Y10.389 I-0.454 J0.207 
G01 X13.855 Y10.46 
G03 X13.744 Y10.831 I-0.497 J0.054 
G01 X13.305 Y11.367 
G03 X12.962 Y11.548 I-0.386 J-0.317 
G01 X12.891 Y11.554 
G03 X12.732 Y11.543 I-0.043 J-0.498 
X12.209 Y11.401 I1.861 J-7.909 
X11.689 Y11.217 I1.901 J-6.191 
X11.188 Y10.994 I2.828 J-7.017 
X10.694 Y10.668 I1.034 J-2.11 
G01 X10.668 Y10.694 
G03 X10.994 Y11.188 I-1.785 J1.528 
X11.217 Y11.689 I-6.794 J3.328 
X11.401 Y12.209 I-6.007 J2.421 
X11.543 Y12.732 I-7.767 J2.385 
X11.554 Y12.891 I-0.486 J0.114 
G01 X11.548 Y12.962 
G03 X11.367 Y13.305 I-0.498 J-0.043 
G01 X10.831 Y13.744 
G03 X10.46 Y13.855 I-0.317 J-0.386 
G01 X10.389 Y13.847 
G03 X10.236 Y13.805 I0.054 J-0.497 
X9.75 Y13.564 I3.368 J-7.393 
X9.276 Y13.282 I3.072 J-5.701 
X8.829 Y12.965 I4.143 J-6.33 
X8.407 Y12.55 I1.425 J-1.868 
G01 X8.377 Y12.57 
G03 X8.6 Y13.118 I-2.049 J1.15 
X8.721 Y13.652 I-7.313 J1.939 
X8.8 Y14.198 I-6.364 J1.202 
X8.837 Y14.74 I-8.083 J0.824 
X8.817 Y14.897 I-0.499 J0.017 
G01 X8.797 Y14.966 
G03 X8.553 Y15.267 I-0.479 J-0.14 
G01 X7.942 Y15.593 
G03 X7.556 Y15.629 I-0.235 J-0.44 
G01 X7.488 Y15.608 
G03 X7.346 Y15.537 I0.15 J-0.476 
X6.916 Y15.205 I4.746 J-6.594 
X6.506 Y14.836 I4.126 J-4.992 
X6.129 Y14.439 I5.298 J-5.4 
X5.797 Y13.949 I1.763 J-1.554 
G01 X5.764 Y13.963 
G03 X5.875 Y14.544 I-2.234 J0.728 
X5.89 Y15.092 I-7.551 J0.475 
X5.861 Y15.642 I-6.476 J-0.061 
X5.791 Y16.18 I-8.088 J-0.768 
X5.741 Y16.331 I-0.493 J-0.08 
G01 X5.708 Y16.395 
G03 X5.41 Y16.642 I-0.443 J-0.231 
G01 X4.747 Y16.843 
G03 X4.361 Y16.803 I-0.145 J-0.478 
G01 X4.299 Y16.769 
G03 X4.173 Y16.671 I0.24 J-0.438 
X3.817 Y16.262 I5.941 J-5.541 
X3.487 Y15.82 I5.021 J-4.091 
X3.195 Y15.357 I6.25 J-4.263 
X2.964 Y14.812 I2.032 J-1.18 
G01 X2.929 Y14.819 
G03 X2.925 Y15.411 I-2.333 J0.278 
X2.832 Y15.951 I-7.498 J-1.007 
X2.696 Y16.485 I-6.34 J-1.324 
X2.523 Y17 I-7.783 J-2.331 
X2.445 Y17.138 I-0.468 J-0.175 
G01 X2.4 Y17.193 
G03 X2.059 Y17.378 I-0.389 J-0.313 
G01 X1.37 Y17.446 
G03 X0.999 Y17.331 I-0.049 J-0.497 
G01 X0.945 Y17.285 
G03 X0.841 Y17.165 I0.321 J-0.383 
X0.571 Y16.695 I6.908 J-4.276 
X0.333 Y16.197 I5.722 J-3.033 
X0.137 Y15.685 I6.962 J-2.962 
X0.018 Y15.106 I2.223 J-0.761 
G01 X-0.018 Y15.106 
G03 X-0.137 Y15.685 I-2.343 J-0.181 
X-0.333 Y16.197 I-7.158 J-2.45 
X-0.571 Y16.695 I-5.96 J-2.535 
X-0.841 Y17.165 I-7.178 J-3.805 
X-0.945 Y17.285 I-0.425 J-0.263 
G01 X-0.999 Y17.331 
G03 X-1.37 Y17.446 I-0.321 J-0.383 
G01 X-2.059 Y17.378 
G03 X-2.4 Y17.193 I0.049 J-0.497 
G01 X-2.445 Y17.138 
G03 X-2.523 Y17 I0.389 J-0.313 
X-2.696 Y16.485 I7.61 J-2.846 
X-2.832 Y15.951 I6.204 J-1.858 
X-2.925 Y15.411 I7.406 J-1.546 
X-2.929 Y14.819 I2.329 J-0.312 
G01 X-2.964 Y14.812 
G03 X-3.195 Y15.357 I-2.262 J-0.635 
X-3.487 Y15.82 I-6.542 J-3.8 
X-3.817 Y16.262 I-5.35 J-3.649 
X-4.173 Y16.671 I-6.298 J-5.132 
X-4.299 Y16.769 I-0.365 J-0.341 
G01 X-4.361 Y16.803 
G03 X-4.747 Y16.843 I-0.24 J-0.438 
G01 X-5.41 Y16.642 
G03 X-5.708 Y16.395 I0.145 J-0.478 
G01 X-5.741 Y16.331 
G03 X-5.791 Y16.18 I0.443 J-0.231 
X-5.861 Y15.642 I8.019 J-1.306 
X-5.89 Y15.092 I6.448 J-0.612 
X-5.875 Y14.544 I7.565 J-0.072 
X-5.764 Y13.963 I2.345 J0.147 
G01 X-5.797 Y13.949 
G03 X-6.129 Y14.439 I-2.095 J-1.064 
X-6.506 Y14.836 I-5.675 J-5.003 
X-6.916 Y15.205 I-4.536 J-4.623 
X-7.346 Y15.537 I-5.176 J-6.263 
X-7.488 Y15.608 I-0.292 J-0.405 
G01 X-7.556 Y15.629 
G03 X-7.942 Y15.593 I-0.15 J-0.476 
G01 X-8.553 Y15.267 
G03 X-8.797 Y14.966 I0.235 J-0.44 
G01 X-8.817 Y14.897 
G03 X-8.837 Y14.74 I0.479 J-0.14 
X-8.8 Y14.198 I8.12 J0.282 
X-8.721 Y13.652 I6.443 J0.657 
X-8.6 Y13.118 I7.434 J1.405 
X-8.377 Y12.57 I2.271 J0.602 
G01 X-8.407 Y12.55 
G03 X-8.829 Y12.965 I-1.847 J-1.452 
X-9.276 Y13.282 I-4.59 J-6.014 
X-9.75 Y13.564 I-3.546 J-5.419 
X-10.236 Y13.805 I-3.854 J-7.152 
X-10.389 Y13.847 I-0.207 J-0.454 
G01 X-10.46 Y13.855 
G03 X-10.831 Y13.744 I-0.054 J-0.497 
G01 X-11.367 Y13.305 
G03 X-11.548 Y12.962 I0.317 J-0.386 
G01 X-11.554 Y12.891 
G03 X-11.543 Y12.732 I0.498 J-0.043 
X-11.401 Y12.209 I7.909 J1.861 
X-11.217 Y11.689 I6.191 J1.901 
X-10.994 Y11.188 I7.017 J2.828 
X-10.668 Y10.694 I2.11 J1.034 
G01 X-10.694 Y10.668 
G03 X-11.188 Y10.994 I-1.528 J-1.785 
X-11.689 Y11.217 I-3.328 J-6.794 
X-12.209 Y11.401 I-2.421 J-6.007 
X-12.732 Y11.543 I-2.385 J-7.767 
X-12.891 Y11.554 I-0.114 J-0.486 
G01 X-12.962 Y11.548 
G03 X-13.305 Y11.367 I0.043 J-0.498 
G01 X-13.744 Y10.831 
G03 X-13.855 Y10.46 I0.386 J-0.317 
G01 X-13.847 Y10.389 
G03 X-13.805 Y10.236 I0.497 J0.054 
X-13.564 Y9.75 I7.393 J3.368 
X-13.282 Y9.276 I5.701 J3.072 
X-12.965 Y8.829 I6.33 J4.143 
X-12.55 Y8.407 I1.868 J1.426 
G01 X-12.57 Y8.377 
G03 X-13.118 Y8.6 I-1.15 J-2.049 
X-13.652 Y8.721 I-1.939 J-7.313 
X-14.198 Y8.8 I-1.202 J-6.364 
X-14.74 Y8.837 I-0.824 J-8.083 
X-14.897 Y8.817 I-0.017 J-0.499 
G01 X-14.966 Y8.797 
G03 X-15.267 Y8.553 I0.14 J-0.479 
G01 X-15.593 Y7.942 
G03 X-15.629 Y7.556 I0.44 J-0.235 
G01 X-15.608 Y7.488 
G03 X-15.537 Y7.346 I0.476 J0.15 
X-15.205 Y6.916 I6.594 J4.746 
X-14.836 Y6.506 I4.992 J4.126 
X-14.439 Y6.129 I5.4 J5.298 
X-13.949 Y5.797 I1.554 J1.763 
G01 X-13.963 Y5.764 
G03 X-14.544 Y5.875 I-0.728 J-2.234 
X-15.092 Y5.89 I-0.475 J-7.551 
X-15.642 Y5.861 I0.061 J-6.476 
X-16.18 Y5.791 I0.768 J-8.088 
X-16.331 Y5.741 I0.08 J-0.493 
G01 X-16.395 Y5.708 
G03 X-16.642 Y5.41 I0.231 J-0.443 
G01 X-16.843 Y4.747 
G03 X-16.803 Y4.361 I0.478 J-0.145 
G01 X-16.769 Y4.299 
G03 X-16.671 Y4.173 I0.438 J0.24 
X-16.262 Y3.817 I5.541 J5.941 
X-15.82 Y3.487 I4.091 J5.021 
X-15.357 Y3.195 I4.263 J6.25 
X-14.812 Y2.964 I1.18 J2.032 
G01 X-14.819 Y2.929 
G03 X-15.411 Y2.925 I-0.278 J-2.333 
X-15.951 Y2.832 I1.007 J-7.498 
X-16.485 Y2.696 I1.324 J-6.34 
X-17 Y2.523 I2.331 J-7.783 
X-17.138 Y2.445 I0.175 J-0.468 
G01 X-17.193 Y2.4 
G03 X-17.378 Y2.059 I0.313 J-0.389 
G01 X-17.446 Y1.37 
G03 X-17.331 Y0.999 I0.497 J-0.049 
G01 X-17.285 Y0.945 
G03 X-17.165 Y0.841 I0.383 J0.321 
X-16.695 Y0.571 I4.276 J6.908 
X-16.197 Y0.333 I3.033 J5.722 
X-15.685 Y0.137 I2.962 J6.962 
X-15.106 Y0.018 I0.761 J2.223 
G01 X-15.106 Y-0.018 
G03 X-15.685 Y-0.137 I0.181 J-2.343 
X-16.197 Y-0.333 I2.45 J-7.158 
X-16.695 Y-0.571 I2.535 J-5.96 
X-17.165 Y-0.841 I3.805 J-7.178 
X-17.285 Y-0.945 I0.263 J-0.425 
G01 X-17.331 Y-0.999 
G03 X-17.446 Y-1.37 I0.383 J-0.321 
G01 X-17.378 Y-2.059 
G03 X-17.193 Y-2.4 I0.497 J0.049 
G01 X-17.138 Y-2.445 
G03 X-17 Y-2.523 I0.313 J0.389 
X-16.485 Y-2.696 I2.846 J7.61 
X-15.951 Y-2.832 I1.858 J6.204 
X-15.411 Y-2.925 I1.546 J7.406 
X-14.819 Y-2.929 I0.312 J2.329 
G01 X-14.812 Y-2.964 
G03 X-15.357 Y-3.195 I0.635 J-2.262 
X-15.82 Y-3.487 I3.8 J-6.542 
X-16.262 Y-3.817 I3.649 J-5.35 
X-16.671 Y-4.173 I5.132 J-6.298 
X-16.769 Y-4.299 I0.341 J-0.365 
G01 X-16.803 Y-4.361 
G03 X-16.843 Y-4.747 I0.438 J-0.24 
G01 X-16.642 Y-5.41 
G03 X-16.395 Y-5.708 I0.478 J0.145 
G01 X-16.331 Y-5.741 
G03 X-16.18 Y-5.791 I0.231 J0.443 
X-15.642 Y-5.861 I1.306 J8.019 
X-15.092 Y-5.89 I0.612 J6.448 
X-14.544 Y-5.875 I0.072 J7.565 
X-13.963 Y-5.764 I-0.147 J2.345 
G01 X-13.949 Y-5.797 
G03 X-14.439 Y-6.129 I1.064 J-2.095 
X-14.836 Y-6.506 I5.003 J-5.675 
X-15.205 Y-6.916 I4.623 J-4.536 
X-15.537 Y-7.346 I6.263 J-5.176 
X-15.608 Y-7.488 I0.405 J-0.292 
G01 X-15.629 Y-7.556 
G03 X-15.593 Y-7.942 I0.476 J-0.15 
G01 X-15.267 Y-8.553 
G03 X-14.966 Y-8.797 I0.44 J0.235 
G01 X-14.897 Y-8.817 
G03 X-14.74 Y-8.837 I0.14 J0.479 
X-14.198 Y-8.8 I-0.282 J8.12 
X-13.652 Y-8.721 I-0.657 J6.443 
X-13.118 Y-8.6 I-1.405 J7.434 
X-12.57 Y-8.377 I-0.602 J2.271 
G01 X-12.55 Y-8.407 
G03 X-12.965 Y-8.829 I1.453 J-1.847 
X-13.282 Y-9.276 I6.014 J-4.59 
X-13.564 Y-9.75 I5.419 J-3.546 
X-13.805 Y-10.236 I7.152 J-3.854 
X-13.847 Y-10.389 I0.454 J-0.207 
G01 X-13.855 Y-10.46 
G03 X-13.744 Y-10.831 I0.497 J-0.054 
G01 X-13.305 Y-11.367 
G03 X-12.962 Y-11.548 I0.386 J0.317 
G01 X-12.891 Y-11.554 
G03 X-12.732 Y-11.543 I0.043 J0.498 
X-12.209 Y-11.401 I-1.861 J7.909 
X-11.689 Y-11.217 I-1.901 J6.191 
X-11.188 Y-10.994 I-2.828 J7.018 
X-10.694 Y-10.668 I-1.034 J2.11 
G01 X-10.668 Y-10.694 
G03 X-10.994 Y-11.188 I1.785 J-1.528 
X-11.217 Y-11.689 I6.795 J-3.328 
X-11.401 Y-12.209 I6.007 J-2.421 
X-11.543 Y-12.732 I7.767 J-2.385 
X-11.554 Y-12.891 I0.486 J-0.114 
G01 X-11.548 Y-12.962 
G03 X-11.367 Y-13.305 I0.498 J0.043 
G01 X-10.831 Y-13.744 
G03 X-10.46 Y-13.855 I0.317 J0.386 
G01 X-10.389 Y-13.847 
G03 X-10.236 Y-13.805 I-0.054 J0.497 
X-9.75 Y-13.564 I-3.368 J7.393 
X-9.276 Y-13.282 I-3.072 J5.701 
X-8.829 Y-12.965 I-4.143 J6.33 
X-8.407 Y-12.55 I-1.426 J1.868 
G01 X-8.377 Y-12.57 
G03 X-8.6 Y-13.118 I2.049 J-1.15 
X-8.721 Y-13.652 I7.313 J-1.939 
X-8.8 Y-14.198 I6.364 J-1.202 
X-8.837 Y-14.74 I8.083 J-0.824 
X-8.817 Y-14.897 I0.499 J-0.017 
G01 X-8.797 Y-14.966 
G03 X-8.553 Y-15.267 I0.479 J0.14 
G01 X-7.942 Y-15.593 
G03 X-7.556 Y-15.629 I0.235 J0.44 
G01 X-7.488 Y-15.608 
G03 X-7.346 Y-15.537 I-0.15 J0.476 
X-6.916 Y-15.205 I-4.746 J6.594 
X-6.506 Y-14.836 I-4.126 J4.992 
X-6.129 Y-14.439 I-5.298 J5.4 
X-5.797 Y-13.949 I-1.763 J1.554 
G01 X-5.764 Y-13.963 
G03 X-5.875 Y-14.544 I2.234 J-0.728 
X-5.89 Y-15.092 I7.551 J-0.475 
X-5.861 Y-15.642 I6.476 J0.061 
X-5.791 Y-16.18 I8.088 J0.768 
X-5.741 Y-16.331 I0.493 J0.08 
G01 X-5.708 Y-16.395 
G03 X-5.41 Y-16.642 I0.443 J0.231 
G01 X-4.747 Y-16.843 
G03 X-4.361 Y-16.803 I0.145 J0.478 
G01 X-4.299 Y-16.769 
G03 X-4.173 Y-16.671 I-0.24 J0.438 
X-3.817 Y-16.262 I-5.941 J5.541 
X-3.487 Y-15.82 I-5.021 J4.091 
X-3.195 Y-15.357 I-6.25 J4.263 
X-2.964 Y-14.812 I-2.032 J1.18 
G01 X-2.929 Y-14.819 
G03 X-2.925 Y-15.411 I2.333 J-0.278 
X-2.832 Y-15.951 I7.498 J1.007 
X-2.696 Y-16.485 I6.34 J1.324 
X-2.523 Y-17 I7.783 J2.331 
X-2.445 Y-17.138 I0.468 J0.175 
G01 X-2.4 Y-17.193 
G03 X-2.059 Y-17.378 I0.389 J0.313 
G01 X-1.37 Y-17.446 
G03 X-0.999 Y-17.331 I0.049 J0.497 
G01 X-0.945 Y-17.285 
G03 X-0.841 Y-17.165 I-0.321 J0.383 
X-0.571 Y-16.695 I-6.908 J4.276 
X-0.333 Y-16.197 I-5.722 J3.033 
X-0.137 Y-15.685 I-6.962 J2.962 
X-0.018 Y-15.106 I-2.223 J0.761 
G01 X0.018 Y-15.106 
G03 X0.137 Y-15.685 I2.343 J0.181 
X0.333 Y-16.197 I7.158 J2.45 
X0.571 Y-16.695 I5.96 J2.535 
X0.841 Y-17.165 I7.178 J3.805 
X0.945 Y-17.285 I0.425 J0.263 
G01 X0.999 Y-17.331 
G03 X1.37 Y-17.446 I0.321 J0.383 
G01 X2.059 Y-17.378 
G03 X2.4 Y-17.193 I-0.049 J0.497 
G01 X2.445 Y-17.138 
G03 X2.523 Y-17 I-0.389 J0.313 
X2.696 Y-16.485 I-7.61 J2.846 
X2.832 Y-15.951 I-6.204 J1.858 
X2.925 Y-15.411 I-7.406 J1.546 
X2.929 Y-14.819 I-2.329 J0.312 
G01 X2.964 Y-14.812 
G03 X3.195 Y-15.357 I2.262 J0.635 
X3.487 Y-15.82 I6.542 J3.8 
X3.817 Y-16.262 I5.35 J3.649 
X4.173 Y-16.671 I6.298 J5.132 
X4.299 Y-16.769 I0.365 J0.341 
G01 X4.361 Y-16.803 
G03 X4.747 Y-16.843 I0.24 J0.438 
G01 X5.078 Y-16.743 
Z-2.4 F100
X5.41 Y-16.642 F600
G03 X5.708 Y-16.395 I-0.145 J0.478 
G01 X5.741 Y-16.331 
G03 X5.791 Y-16.18 I-0.443 J0.231 
X5.861 Y-15.642 I-8.019 J1.306 
X5.89 Y-15.092 I-6.448 J0.612 
X5.875 Y-14.544 I-7.565 J0.072 
X5.764 Y-13.963 I-2.345 J-0.147 
G01 X5.797 Y-13.949 
G03 X6.129 Y-14.439 I2.095 J1.064 
X6.506 Y-14.836 I5.675 J5.003 
X6.916 Y-15.205 I4.536 J4.623 
X7.346 Y-15.537 I5.176 J6.263 
X7.488 Y-15.608 I0.292 J0.405 
G01 X7.556 Y-15.629 
G03 X7.942 Y-15.593 I0.15 J0.476 
G01 X8.553 Y-15.267 
G03 X8.797 Y-14.966 I-0.235 J0.44 
G01 X8.817 Y-14.897 
G03 X8.837 Y-14.74 I-0.479 J0.14 
X8.8 Y-14.198 I-8.12 J-0.282 
X8.721 Y-13.652 I-6.443 J-0.657 
X8.6 Y-13.118 I-7.434 J-1.405 
X8.377 Y-12.57 I-2.271 J-0.602 
G01 X8.407 Y-12.55 
G03 X8.829 Y-12.965 I1.847 J1.453 
X9.276 Y-13.282 I4.59 J6.014 
X9.75 Y-13.564 I3.546 J5.419 
X10.236 Y-13.805 I3.854 J7.152 
X10.389 Y-13.847 I0.207 J0.454 
G01 X10.46 Y-13.855 
G03 X10.831 Y-13.744 I0.054 J0.497 
G01 X11.367 Y-13.305 
G03 X11.548 Y-12.962 I-0.317 J0.386 
G01 X11.554 Y-12.891 
G03 X11.543 Y-12.732 I-0.498 J0.043 
X11.401 Y-12.209 I-7.909 J-1.861 
X11.217 Y-11.689 I-6.191 J-1.901 
X10.994 Y-11.188 I-7.017 J-2.828 
X10.668 Y-10.694 I-2.11 J-1.034 
G01 X10.694 Y-10.668 
G03 X11.188 Y-10.994 I1.528 J1.785 
X11.689 Y-11.217 I3.328 J6.794 
X12.209 Y-11.401 I2.421 J6.007 
X12.732 Y-11.543 I2.385 J7.767 
X12.891 Y-11.554 I0.114 J0.486 
G01 X12.962 Y-11.548 
G03 X13.305 Y-11.367 I-0.043 J0.498 
G01 X13.744 Y-10.831 
G03 X13.855 Y-10.46 I-0.386 J0.317 
G01 X13.847 Y-10.389 
G03 X13.805 Y-10.236 I-0.497 J-0.054 
X13.564 Y-9.75 I-7.393 J-3.368 
X13.282 Y-9.276 I-5.701 J-3.072 
X12.965 Y-8.829 I-6.33 J-4.143 
X12.55 Y-8.407 I-1.868 J-1.425 
G01 X12.57 Y-8.377 
G03 X13.118 Y-8.6 I1.15 J2.049 
X13.652 Y-8.721 I1.939 J7.313 
X14.198 Y-8.8 I1.202 J6.364 
X14.74 Y-8.837 I0.824 J8.083 
X14.897 Y-8.817 I0.017 J0.499 
G01 X14.966 Y-8.797 
G03 X15.267 Y-8.553 I-0.14 J0.479 
G01 X15.593 Y-7.942 
G03 X15.629 Y-7.556 I-0.44 J0.235 
G01 X15.608 Y-7.488 
G03 X15.537 Y-7.346 I-0.476 J-0.15 
X15.205 Y-6.916 I-6.594 J-4.746 
X14.836 Y-6.506 I-4.992 J-4.126 
X14.439 Y-6.129 I-5.4 J-5.298 
X13.949 Y-5.797 I-1.554 J-1.763 
G01 X13.963 Y-5.764 
G03 X14.544 Y-5.875 I0.728 J2.234 
X15.092 Y-5.89 I0.475 J7.551 
X15.642 Y-5.861 I-0.061 J6.476 
X16.18 Y-5.791 I-0.768 J8.088 
X16.331 Y-5.741 I-0.08 J0.493 
G01 X16.395 Y-5.708 
G03 X16.642 Y-5.41 I-0.231 J0.443 
G01 X16.843 Y-4.747 
G03 X16.803 Y-4.361 I-0.478 J0.145 
G01 X16.769 Y-4.299 
G03 X16.671 Y-4.173 I-0.438 J-0.24 
X16.262 Y-3.817 I-5.541 J-5.941 
X15.82 Y-3.487 I-4.091 J-5.021 
X15.357 Y-3.195 I-4.263 J-6.25 
X14.812 Y-2.964 I-1.18 J-2.032 
G01 X14.819 Y-2.929 
G03 X15.411 Y-2.925 I0.278 J2.333 
X15.951 Y-2.832 I-1.007 J7.498 
X16.485 Y-2.696 I-1.324 J6.34 
X17 Y-2.523 I-2.331 J7.783 
X17.138 Y-2.445 I-0.175 J0.468 
G01 X17.193 Y-2.4 
G03 X17.378 Y-2.059 I-0.313 J0.389 
G01 X17.446 Y-1.37 
G03 X17.331 Y-0.999 I-0.497 J0.049 
G01 X17.285 Y-0.945 
G03 X17.165 Y-0.841 I-0.383 J-0.321 
X16.695 Y-0.571 I-4.276 J-6.908 
X16.197 Y-0.333 I-3.033 J-5.722 
X15.685 Y-0.137 I-2.962 J-6.962 
X15.106 Y-0.018 I-0.761 J-2.223 
G01 X15.106 Y0.018 
G03 X15.685 Y0.137 I-0.181 J2.343 
X16.197 Y0.333 I-2.45 J7.158 
X16.695 Y0.571 I-2.535 J5.96 
X17.165 Y0.841 I-3.805 J7.178 
X17.285 Y0.945 I-0.263 J0.425 
G01 X17.331 Y0.999 
G03 X17.446 Y1.37 I-0.383 J0.321 
G01 X17.378 Y2.059 
G03 X17.193 Y2.4 I-0.497 J-0.049 
G01 X17.138 Y2.445 
G03 X17 Y2.523 I-0.313 J-0.389 
X16.485 Y2.696 I-2.846 J-7.61 
X15.951 Y2.832 I-1.858 J-6.204 
X15.411 Y2.925 I-1.546 J-7.406 
X14.819 Y2.929 I-0.312 J-2.329 
G01 X14.812 Y2.964 
G03 X15.357 Y3.195 I-0.635 J2.262 
X15.82 Y3.487 I-3.8 J6.542 
X16.262 Y3.817 I-3.649 J5.35 
X16.671 Y4.173 I-5.132 J6.298 
X16.769 Y4.299 I-0.341 J0.365 
G01 X16.803 Y4.361 
G03 X16.843 Y4.747 I-0.438 J0.24 
G01 X16.642 Y5.41 
G03 X16.395 Y5.708 I-0.478 J-0.145 
G01 X16.331 Y5.741 
G03 X16.18 Y5.791 I-0.231 J-0.443 
X15.642 Y5.861 I-1.306 J-8.019 
X15.092 Y5.89 I-0.612 J-6.448 
X14.544 Y5.875 I-0.072 J-7.565 
X13.963 Y5.764 I0.147 J-2.345 
G01 X13.949 Y5.797 
G03 X14.439 Y6.129 I-1.064 J2.095 
X14.836 Y6.506 I-5.003 J5.675 
X15.205 Y6.916 I-4.623 J4.536 
X15.537 Y7.346 I-6.263 J5.176 
X15.608 Y7.488 I-0.405 J0.292 
G01 X15.629 Y7.556 
G03 X15.593 Y7.942 I-0.476 J0.15 
G01 X15.267 Y8.553 
G03 X14.966 Y8.797 I-0.44 J-0.235 
G01 X14.897 Y8.817 
G03 X14.74 Y8.837 I-0.14 J-0.479 
X14.198 Y8.8 I0.282 J-8.12 
X13.652 Y8.721 I0.657 J-6.443 
X13.118 Y8.6 I1.405 J-7.434 
X12.57 Y8.377 I0.602 J-2.271 
G01 X12.55 Y8.407 
G03 X12.965 Y8.829 I-1.453 J1.847 
X13.282 Y9.276 I-6.014 J4.59 
X13.564 Y9.75 I-5.419 J3.546 
X13.805 Y10.236 I-7.152 J3.854 
X13.847 Y10.389 I-0.454 J0.207 
G01 X13.855 Y10.46 
G03 X13.744 Y10.831 I-0.497 J0.054 
G01 X13.305 Y11.367 
G03 X12.962 Y11.548 I-0.386 J-0.317 
G01 X12.891 Y11.554 
G03 X12.732 Y11.543 I-0.043 J-0.498 
X12.209 Y11.401 I1.861 J-7.909 
X11.689 Y11.217 I1.901 J-6.191 
X11.188 Y10.994 I2.828 J-7.017 
X10.694 Y10.668 I1.034 J-2.11 
G01 X10.668 Y10.694 
G03 X10.994 Y11.188 I-1.785 J1.528 
X11.217 Y11.689 I-6.794 J3.328 
X11.401 Y12.209 I-6.007 J2.421 
X11.543 Y12.732 I-7.767 J2.385 
X11.554 Y12.891 I-0.486 J0.114 
G01 X11.548 Y12.962 
G03 X11.367 Y13.305 I-0.498 J-0.043 
G01 X10.831 Y13.744 
G03 X10.46 Y13.855 I-0.317 J-0.386 
G01 X10.389 Y13.847 
G03 X10.236 Y13.805 I0.054 J-0.497 
X9.75 Y13.564 I3.368 J-7.393 
X9.276 Y13.282 I3.072 J-5.701 
X8.829 Y12.965 I4.143 J-6.33 
X8.407 Y12.55 I1.425 J-1.868 
G01 X8.377 Y12.57 
G03 X8.6 Y13.118 I-2.049 J1.15 
X8.721 Y13.652 I-7.313 J1.939 
X8.8 Y14.198 I-6.364 J1.202 
X8.837 Y14.74 I-8.083 J0.824 
X8.817 Y14.897 I-0.499 J0.017 
G01 X8.797 Y14.966 
G03 X8.553 Y15.267 I-0.479 J-0.14 
G01 X7.942 Y15.593 
G03 X7.556 Y15.629 I-0.235 J-0.44 
G01 X7.488 Y15.608 
G03 X7.346 Y15.537 I0.15 J-0.476 
X6.916 Y15.205 I4.746 J-6.594 
X6.506 Y14.836 I4.126 J-4.992 
X6.129 Y14.439 I5.298 J-5.4 
X5.797 Y13.949 I1.763 J-1.554 
G01 X5.764 Y13.963 
G03 X5.875 Y14.544 I-2.234 J0.728 
X5.89 Y15.092 I-7.551 J0.475 
X5.861 Y15.642 I-6.476 J-0.061 
X5.791 Y16.18 I-8.088 J-0.768 
X5.741 Y16.331 I-0.493 J-0.08 
G01 X5.708 Y16.395 
G03 X5.41 Y16.642 I-0.443 J-0.231 
G01 X4.747 Y16.843 
G03 X4.361 Y16.803 I-0.145 J-0.478 
G01 X4.299 Y16.769 
G03 X4.173 Y16.671 I0.24 J-0.438 
X3.817 Y16.262 I5.941 J-5.541 
X3.487 Y15.82 I5.021 J-4.091 
X3.195 Y15.357 I6.25 J-4.263 
X2.964 Y14.812 I2.032 J-1.18 
G01 X2.929 Y14.819 
G03 X2.925 Y15.411 I-2.333 J0.278 
X2.832 Y15.951 I-7.498 J-1.007 
X2.696 Y16.485 I-6.34 J-1.324 
X2.523 Y17 I-7.783 J-2.331 
X2.445 Y17.138 I-0.468 J-0.175 
G01 X2.4 Y17.193 
G03 X2.059 Y17.378 I-0.389 J-0.313 
G01 X1.37 Y17.446 
G03 X0.999 Y17.331 I-0.049 J-0.497 
G01 X0.945 Y17.285 
G03 X0.841 Y17.165 I0.321 J-0.383 
X0.571 Y16.695 I6.908 J-4.276 
X0.333 Y16.197 I5.722 J-3.033 
X0.137 Y15.685 I6.962 J-2.962 
X0.018 Y15.106 I2.223 J-0.761 
G01 X-0.018 Y15.106 
G03 X-0.137 Y15.685 I-2.343 J-0.181 
X-0.333 Y16.197 I-7.158 J-2.45 
X-0.571 Y16.695 I-5.96 J-2.535 
X-0.841 Y17.165 I-7.178 J-3.805 
X-0.945 Y17.285 I-0.425 J-0.263 
G01 X-0.999 Y17.331 
G03 X-1.37 Y17.446 I-0.321 J-0.383 
G01 X-2.059 Y17.378 
G03 X-2.4 Y17.193 I0.049 J-0.497 
G01 X-2.445 Y17.138 
G03 X-2.523 Y17 I0.389 J-0.313 
X-2.696 Y16.485 I7.61 J-2.846 
X-2.832 Y15.951 I6.204 J-1.858 
X-2.925 Y15.411 I7.406 J-1.546 
X-2.929 Y14.819 I2.329 J-0.312 
G01 X-2.964 Y14.812 
G03 X-3.195 Y15.357 I-2.262 J-0.635 
X-3.487 Y15.82 I-6.542 J-3.8 
X-3.817 Y16.262 I-5.35 J-3.649 
X-4.173 Y16.671 I-6.298 J-5.132 
X-4.299 Y16.769 I-0.365 J-0.341 
G01 X-4.361 Y16.803 
G03 X-4.747 Y16.843 I-0.24 J-0.438 
G01 X-5.41 Y16.642 
G03 X-5.708 Y16.395 I0.145 J-0.478 
G01 X-5.741 Y16.331 
G03 X-5.791 Y16.18 I0.443 J-0.231 
X-5.861 Y15.642 I8.019 J-1.306 
X-5.89 Y15.092 I6.448 J-0.612 
X-5.875 Y14.544 I7.565 J-0.072 
X-5.764 Y13.963 I2.345 J0.147 
G01 X-5.797 Y13.949 
G03 X-6.129 Y14.439 I-2.095 J-1.064 
X-6.506 Y14.836 I-5.675 J-5.003 
X-6.916 Y15.205 I-4.536 J-4.623 
X-7.346 Y15.537 I-5.176 J-6.263 
X-7.488 Y15.608 I-0.292 J-0.405 
G01 X-7.556 Y15.629 
G03 X-7.942 Y15.593 I-0.15 J-0.476 
G01 X-8.553 Y15.267 
G03 X-8.797 Y14.966 I0.235 J-0.44 
G01 X-8.817 Y14.897 
G03 X-8.837 Y14.74 I0.479 J-0.14 
X-8.8 Y14.198 I8.12 J0.282 
X-8.721 Y13.652 I6.443 J0.657 
X-8.6 Y13.118 I7.434 J1.405 
X-8.377 Y12.57 I2.271 J0.602 
G01 X-8.407 Y12.55 
G03 X-8.829 Y12.965 I-1.847 J-1.452 
X-9.276 Y13.282 I-4.59 J-6.014 
X-9.75 Y13.564 I-3.546 J-5.419 
X-10.236 Y13.805 I-3.854 J-7.152 
X-10.389 Y13.847 I-0.207 J-0.454 
G01 X-10.46 Y13.855 
G03 X-10.831 Y13.744 I-0.054 J-0.497 
G01 X-11.367 Y13.305 
G03 X-11.548 Y12.962 I0.317 J-0.386 
G01 X-11.554 Y12.891 
G03 X-11.543 Y12.732 I0.498 J-0.043 
X-11.401 Y12.209 I7.909 J1.861 
X-11.217 Y11.689 I6.191 J1.901 
X-10.994 Y11.188 I7.017 J2.828 
X-10.668 Y10.694 I2.11 J1.034 
G01 X-10.694 Y10.668 
G03 X-11.188 Y10.994 I-1.528 J-1.785 
X-11.689 Y11.217 I-3.328 J-6.794 
X-12.209 Y11.401 I-2.421 J-6.007 
X-12.732 Y11.543 I-2.385 J-7.767 
X-12.891 Y11.554 I-0.114 J-0.486 
G01 X-12.962 Y11.548 
G03 X-13.305 Y11.367 I0.043 J-0.498 
G01 X-13.744 Y10.831 
G03 X-13.855 Y10.46 I0.386 J-0.317 
G01 X-13.847 Y10.389 
G03 X-13.805 Y10.236 I0.497 J0.054 
X-13.564 Y9.75 I7.393 J3.368 
X-13.282 Y9.276 I5.701 J3.072 
X-12.965 Y8.829 I6.33 J4.143 
X-12.55 Y8.407 I1.868 J1.426 
G01 X-12.57 Y8.377 
G03 X-13.118 Y8.6 I-1.15 J-2.049 
X-13.652 Y8.721 I-1.939 J-7.313 
X-14.198 Y8.8 I-1.202 J-6.364 
X-14.74 Y8.837 I-0.824 J-8.083 
X-14.897 Y8.817 I-0.017 J-0.499 
G01 X-14.966 Y8.797 
G03 X-15.267 Y8.553 I0.14 J-0.479 
G01 X-15.593 Y7.942 
G03 X-15.629 Y7.556 I0.44 J-0.235 
G01 X-15.608 Y7.488 
G03 X-15.537 Y7.346 I0.476 J0.15 
X-15.205 Y6.916 I6.594 J4.746 
X-14.836 Y6.506 I4.992 J4.126 
X-14.439 Y6.129 I5.4 J5.298 
X-13.949 Y5.797 I1.554 J1.763 
G01 X-13.963 Y5.764 
G03 X-14.544 Y5.875 I-0.728 J-2.234 
X-15.092 Y5.89 I-0.475 J-7.551 
X-15.642 Y5.861 I0.061 J-6.476 
X-16.18 Y5.791 I0.768 J-8.088 
X-16.331 Y5.741 I0.08 J-0.493 
G01 X-16.395 Y5.708 
G03 X-16.642 Y5.41 I0.231 J-0.443 
G01 X-16.843 Y4.747 
G03 X-16.803 Y4.361 I0.478 J-0.145 
G01 X-16.769 Y4.299 
G03 X-16.671 Y4.173 I0.438 J0.24 
X-16.262 Y3.817 I5.541 J5.941 
X-15.82 Y3.487 I4.091 J5.021 
X-15.357 Y3.195 I4.263 J6.25 
X-14.812 Y2.964 I1.18 J2.032 
G01 X-14.819 Y2.929 
G03 X-15.411 Y2.925 I-0.278 J-2.333 
X-15.951 Y2.832 I1.007 J-7.498 
X-16.485 Y2.696 I1.324 J-6.34 
X-17 Y2.523 I2.331 J-7.783 
X-17.138 Y2.445 I0.175 J-0.468 
G01 X-17.193 Y2.4 
G03 X-17.378 Y2.059 I0.313 J-0.389 
G01 X-17.446 Y1.37 
G03 X-17.331 Y0.999 I0.497 J-0.049 
G01 X-17.285 Y0.945 
G03 X-17.165 Y0.841 I0.383 J0.321 
X-16.695 Y0.571 I4.276 J6.908 
X-16.197 Y0.333 I3.033 J5.722 
X-15.685 Y0.137 I2.962 J6.962 
X-15.106 Y0.018 I0.761 J2.223 
G01 X-15.106 Y-0.018 
G03 X-15.685 Y-0.137 I0.181 J-2.343 
X-16.197 Y-0.333 I2.45 J-7.158 
X-16.695 Y-0.571 I2.535 J-5.96 
X-17.165 Y-0.841 I3.805 J-7.178 
X-17.285 Y-0.945 I0.263 J-0.425 
G01 X-17.331 Y-0.999 
G03 X-17.446 Y-1.37 I0.383 J-0.321 
G01 X-17.378 Y-2.059 
G03 X-17.193 Y-2.4 I0.497 J0.049 
G01 X-17.138 Y-2.445 
G03 X-17 Y-2.523 I0.313 J0.389 
X-16.485 Y-2.696 I2.846 J7.61 
X-15.951 Y-2.832 I1.858 J6.204 
X-15.411 Y-2.925 I1.546 J7.406 
X-14.819 Y-2.929 I0.312 J2.329 
G01 X-14.812 Y-2.964 
G03 X-15.357 Y-3.195 I0.635 J-2.262 
X-15.82 Y-3.487 I3.8 J-6.542 
X-16.262 Y-3.817 I3.649 J-5.35 
X-16.671 Y-4.173 I5.132 J-6.298 
X-16.769 Y-4.299 I0.341 J-0.365 
G01 X-16.803 Y-4.361 
G03 X-16.843 Y-4.747 I0.438 J-0.24 
G01 X-16.642 Y-5.41 
G03 X-16.395 Y-5.708 I0.478 J0.145 
G01 X-16.331 Y-5.741 
G03 X-16.18 Y-5.791 I0.231 J0.443 
X-15.642 Y-5.861 I1.306 J8.019 
X-15.092 Y-5.89 I0.612 J6.448 
X-14.544 Y-5.875 I0.072 J7.565 
X-13.963 Y-5.764 I-0.147 J2.345 
G01 X-13.949 Y-5.797 
G03 X-14.439 Y-6.129 I1.064 J-2.095 
X-14.836 Y-6.506 I5.003 J-5.675 
X-15.205 Y-6.916 I4.623 J-4.536 
X-15.537 Y-7.346 I6.263 J-5.176 
X-15.608 Y-7.488 I0.405 J-0.292 
G01 X-15.629 Y-7.556 
G03 X-15.593 Y-7.942 I0.476 J-0.15 
G01 X-15.267 Y-8.553 
G03 X-14.966 Y-8.797 I0.44 J0.235 
G01 X-14.897 Y-8.817 
G03 X-14.74 Y-8.837 I0.14 J0.479 
X-14.198 Y-8.8 I-0.282 J8.12 
X-13.652 Y-8.721 I-0.657 J6.443 
X-13.118 Y-8.6 I-1.405 J7.434 
X-12.57 Y-8.377 I-0.602 J2.271 
G01 X-12.55 Y-8.407 
G03 X-12.965 Y-8.829 I1.453 J-1.847 
X-13.282 Y-9.276 I6.014 J-4.59 
X-13.564 Y-9.75 I5.419 J-3.546 
X-13.805 Y-10.236 I7.152 J-3.854 
X-13.847 Y-10.389 I0.454 J-0.207 
G01 X-13.855 Y-10.46 
G03 X-13.744 Y-10.831 I0.497 J-0.054 
G01 X-13.305 Y-11.367 
G03 X-12.962 Y-11.548 I0.386 J0.317 
G01 X-12.891 Y-11.554 
G03 X-12.732 Y-11.543 I0.043 J0.498 
X-12.209 Y-11.401 I-1.861 J7.909 
X-11.689 Y-11.217 I-1.901 J6.191 
X-11.188 Y-10.994 I-2.828 J7.018 
X-10.694 Y-10.668 I-1.034 J2.11 
G01 X-10.668 Y-10.694 
G03 X-10.994 Y-11.188 I1.785 J-1.528 
X-11.217 Y-11.689 I6.795 J-3.328 
X-11.401 Y-12.209 I6.007 J-2.421 
X-11.543 Y-12.732 I7.767 J-2.385 
X-11.554 Y-12.891 I0.486 J-0.114 
G01 X-11.548 Y-12.962 
G03 X-11.367 Y-13.305 I0.498 J0.043 
G01 X-10.831 Y-13.744 
G03 X-10.46 Y-13.855 I0.317 J0.386 
G01 X-10.389 Y-13.847 
G03 X-10.236 Y-13.805 I-0.054 J0.497 
X-9.75 Y-13.564 I-3.368 J7.393 
X-9.276 Y-13.282 I-3.072 J5.701 
X-8.829 Y-12.965 I-4.143 J6.33 
X-8.407 Y-12.55 I-1.426 J1.868 
G01 X-8.377 Y-12.57 
G03 X-8.6 Y-13.118 I2.049 J-1.15 
X-8.721 Y-13.652 I7.313 J-1.939 
X-8.8 Y-14.198 I6.364 J-1.202 
X-8.837 Y-14.74 I8.083 J-0.824 
X-8.817 Y-14.897 I0.499 J-0.017 
G01 X-8.797 Y-14.966 
G03 X-8.553 Y-15.267 I0.479 J0.14 
G01 X-7.942 Y-15.593 
G03 X-7.556 Y-15.629 I0.235 J0.44 
G01 X-7.488 Y-15.608 
G03 X-7.346 Y-15.537 I-0.15 J0.476 
X-6.916 Y-15.205 I-4.746 J6.594 
X-6.506 Y-14.836 I-4.126 J4.992 
X-6.129 Y-14.439 I-5.298 J5.4 
X-5.797 Y-13.949 I-1.763 J1.554 
G01 X-5.764 Y-13.963 
G03 X-5.875 Y-14.544 I2.234 J-0.728 
X-5.89 Y-15.092 I7.551 J-0.475 
X-5.861 Y-15.642 I6.476 J0.061 
X-5.791 Y-16.18 I8.088 J0.768 
X-5.741 Y-16.331 I0.493 J0.08 
G01 X-5.708 Y-16.395 
G03 X-5.41 Y-16.642 I0.443 J0.231 
G01 X-4.747 Y-16.843 
G03 X-4.361 Y-16.803 I0.145 J0.478 
G01 X-4.299 Y-16.769 
G03 X-4.173 Y-16.671 I-0.24 J0.438 
X-3.817 Y-16.262 I-5.941 J5.541 
X-3.487 Y-15.82 I-5.021 J4.091 
X-3.195 Y-15.357 I-6.25 J4.263 
X-2.964 Y-14.812 I-2.032 J1.18 
G01 X-2.929 Y-14.819 
G03 X-2.925 Y-15.411 I2.333 J-0.278 
X-2.832 Y-15.951 I7.498 J1.007 
X-2.696 Y-16.485 I6.34 J1.324 
X-2.523 Y-17 I7.783 J2.331 
X-2.445 Y-17.138 I0.468 J0.175 
G01 X-2.4 Y-17.193 
G03 X-2.059 Y-17.378 I0.389 J0.313 
G01 X-1.37 Y-17.446 
G03 X-0.999 Y-17.331 I0.049 J0.497 
G01 X-0.945 Y-17.285 
G03 X-0.841 Y-17.165 I-0.321 J0.383 
X-0.571 Y-16.695 I-6.908 J4.276 
X-0.333 Y-16.197 I-5.722 J3.033 
X-0.137 Y-15.685 I-6.962 J2.962 
X-0.018 Y-15.106 I-2.223 J0.761 
G01 X0.018 Y-15.106 
G03 X0.137 Y-15.685 I2.343 J0.181 
X0.333 Y-16.197 I7.158 J2.45 
X0.571 Y-16.695 I5.96 J2.535 
X0.841 Y-17.165 I7.178 J3.805 
X0.945 Y-17.285 I0.425 J0.263 
G01 X0.999 Y-17.331 
G03 X1.37 Y-17.446 I0.321 J0.383 
G01 X2.059 Y-17.378 
G03 X2.4 Y-17.193 I-0.049 J0.497 
G01 X2.445 Y-17.138 
G03 X2.523 Y-17 I-0.389 J0.313 
X2.696 Y-16.485 I-7.61 J2.846 
X2.832 Y-15.951 I-6.204 J1.858 
X2.925 Y-15.411 I-7.406 J1.546 
X2.929 Y-14.819 I-2.329 J0.312 
G01 X2.964 Y-14.812 
G03 X3.195 Y-15.357 I2.262 J0.635 
X3.487 Y-15.82 I6.542 J3.8 
X3.817 Y-16.262 I5.35 J3.649 
X4.173 Y-16.671 I6.298 J5.132 
X4.299 Y-16.769 I0.365 J0.341 
G01 X4.361 Y-16.803 
G03 X4.747 Y-16.843 I0.24 J0.438 
G01 X5.078 Y-16.743 
Z-3.2 F100
X5.41 Y-16.642 F600
G03 X5.708 Y-16.395 I-0.145 J0.478 
G01 X5.741 Y-16.331 
G03 X5.791 Y-16.18 I-0.443 J0.231 
X5.861 Y-15.642 I-8.019 J1.306 
X5.89 Y-15.092 I-6.448 J0.612 
X5.875 Y-14.544 I-7.565 J0.072 
X5.764 Y-13.963 I-2.345 J-0.147 
G01 X5.797 Y-13.949 
G03 X6.129 Y-14.439 I2.095 J1.064 
X6.506 Y-14.836 I5.675 J5.003 
X6.916 Y-15.205 I4.536 J4.623 
X7.346 Y-15.537 I5.176 J6.263 
X7.488 Y-15.608 I0.292 J0.405 
G01 X7.556 Y-15.629 
G03 X7.942 Y-15.593 I0.15 J0.476 
G01 X8.553 Y-15.267 
G03 X8.797 Y-14.966 I-0.235 J0.44 
G01 X8.817 Y-14.897 
G03 X8.837 Y-14.74 I-0.479 J0.14 
X8.8 Y-14.198 I-8.12 J-0.282 
X8.721 Y-13.652 I-6.443 J-0.657 
X8.6 Y-13.118 I-7.434 J-1.405 
X8.377 Y-12.57 I-2.271 J-0.602 
G01 X8.407 Y-12.55 
G03 X8.829 Y-12.965 I1.847 J1.453 
X9.276 Y-13.282 I4.59 J6.014 
X9.75 Y-13.564 I3.546 J5.419 
X10.236 Y-13.805 I3.854 J7.152 
X10.389 Y-13.847 I0.207 J0.454 
G01 X10.46 Y-13.855 
G03 X10.831 Y-13.744 I0.054 J0.497 
G01 X11.367 Y-13.305 
G03 X11.548 Y-12.962 I-0.317 J0.386 
G01 X11.554 Y-12.891 
G03 X11.543 Y-12.732 I-0.498 J0.043 
X11.401 Y-12.209 I-7.909 J-1.861 
X11.217 Y-11.689 I-6.191 J-1.901 
X10.994 Y-11.188 I-7.017 J-2.828 
X10.668 Y-10.694 I-2.11 J-1.034 
G01 X10.694 Y-10.668 
G03 X11.188 Y-10.994 I1.528 J1.785 
X11.689 Y-11.217 I3.328 J6.794 
X12.209 Y-11.401 I2.421 J6.007 
X12.732 Y-11.543 I2.385 J7.767 
X12.891 Y-11.554 I0.114 J0.486 
G01 X12.962 Y-11.548 
G03 X13.305 Y-11.367 I-0.043 J0.498 
G01 X13.744 Y-10.831 
G03 X13.855 Y-10.46 I-0.386 J0.317 
G01 X13.847 Y-10.389 
G03 X13.805 Y-10.236 I-0.497 J-0.054 
X13.564 Y-9.75 I-7.393 J-3.368 
X13.282 Y-9.276 I-5.701 J-3.072 
X12.965 Y-8.829 I-6.33 J-4.143 
X12.55 Y-8.407 I-1.868 J-1.425 
G01 X12.57 Y-8.377 
G03 X13.118 Y-8.6 I1.15 J2.049 
X13.652 Y-8.721 I1.939 J7.313 
X14.198 Y-8.8 I1.202 J6.364 
X14.74 Y-8.837 I0.824 J8.083 
X14.897 Y-8.817 I0.017 J0.499 
G01 X14.966 Y-8.797 
G03 X15.267 Y-8.553 I-0.14 J0.479 
G01 X15.593 Y-7.942 
G03 X15.629 Y-7.556 I-0.44 J0.235 
G01 X15.608 Y-7.488 
G03 X15.537 Y-7.346 I-0.476 J-0.15 
X15.205 Y-6.916 I-6.594 J-4.746 
X14.836 Y-6.506 I-4.992 J-4.126 
X14.439 Y-6.129 I-5.4 J-5.298 
X13.949 Y-5.797 I-1.554 J-1.763 
G01 X13.963 Y-5.764 
G03 X14.544 Y-5.875 I0.728 J2.234 
X15.092 Y-5.89 I0.475 J7.551 
X15.642 Y-5.861 I-0.061 J6.476 
X16.18 Y-5.791 I-0.768 J8.088 
X16.331 Y-5.741 I-0.08 J0.493 
G01 X16.395 Y-5.708 
G03 X16.642 Y-5.41 I-0.231 J0.443 
G01 X16.843 Y-4.747 
G03 X16.803 Y-4.361 I-0.478 J0.145 
G01 X16.769 Y-4.299 
G03 X16.671 Y-4.173 I-0.438 J-0.24 
X16.262 Y-3.817 I-5.541 J-5.941 
X15.82 Y-3.487 I-4.091 J-5.021 
X15.357 Y-3.195 I-4.263 J-6.25 
X14.812 Y-2.964 I-1.18 J-2.032 
G01 X14.819 Y-2.929 
G03 X15.411 Y-2.925 I0.278 J2.333 
X15.951 Y-2.832 I-1.007 J7.498 
X16.485 Y-2.696 I-1.324 J6.34 
X17 Y-2.523 I-2.331 J7.783 
X17.138 Y-2.445 I-0.175 J0.468 
G01 X17.193 Y-2.4 
G03 X17.378 Y-2.059 I-0.313 J0.389 
G01 X17.446 Y-1.37 
G03 X17.331 Y-0.999 I-0.497 J0.049 
G01 X17.285 Y-0.945 
G03 X17.165 Y-0.841 I-0.383 J-0.321 
X16.695 Y-0.571 I-4.276 J-6.908 
X16.197 Y-0.333 I-3.033 J-5.722 
X15.685 Y-0.137 I-2.962 J-6.962 
X15.106 Y-0.018 I-0.761 J-2.223 
G01 X15.106 Y0.018 
G03 X15.685 Y0.137 I-0.181 J2.343 
X16.197 Y0.333 I-2.45 J7.158 
X16.695 Y0.571 I-2.535 J5.96 
X17.165 Y0.841 I-3.805 J7.178 
X17.285 Y0.945 I-0.263 J0.425 
G01 X17.331 Y0.999 
G03 X17.446 Y1.37 I-0.383 J0.321 
G01 X17.378 Y2.059 
G03 X17.193 Y2.4 I-0.497 J-0.049 
G01 X17.138 Y2.445 
G03 X17 Y2.523 I-0.313 J-0.389 
X16.485 Y2.696 I-2.846 J-7.61 
X15.951 Y2.832 I-1.858 J-6.204 
X15.411 Y2.925 I-1.546 J-7.406 
X14.819 Y2.929 I-0.312 J-2.329 
G01 X14.812 Y2.964 
G03 X15.357 Y3.195 I-0.635 J2.262 
X15.82 Y3.487 I-3.8 J6.542 
X16.262 Y3.817 I-3.649 J5.35 
X16.671 Y4.173 I-5.132 J6.298 
X16.769 Y4.299 I-0.341 J0.365 
G01 X16.803 Y4.361 
G03 X16.843 Y4.747 I-0.438 J0.24 
G01 X16.642 Y5.41 
G03 X16.395 Y5.708 I-0.478 J-0.145 
G01 X16.331 Y5.741 
G03 X16.18 Y5.791 I-0.231 J-0.443 
X15.642 Y5.861 I-1.306 J-8.019 
X15.092 Y5.89 I-0.612 J-6.448 
X14.544 Y5.875 I-0.072 J-7.565 
X13.963 Y5.764 I0.147 J-2.345 
G01 X13.949 Y5.797 
G03 X14.439 Y6.129 I-1.064 J2.095 
X14.836 Y6.506 I-5.003 J5.675 
X15.205 Y6.916 I-4.623 J4.536 
X15.537 Y7.346 I-6.263 J5.176 
X15.608 Y7.488 I-0.405 J0.292 
G01 X15.629 Y7.556 
G03 X15.593 Y7.942 I-0.476 J0.15 
G01 X15.267 Y8.553 
G03 X14.966 Y8.797 I-0.44 J-0.235 
G01 X14.897 Y8.817 
G03 X14.74 Y8.837 I-0.14 J-0.479 
X14.198 Y8.8 I0.282 J-8.12 
X13.652 Y8.721 I0.657 J-6.443 
X13.118 Y8.6 I1.405 J-7.434 
X12.57 Y8.377 I0.602 J-2.271 
G01 X12.55 Y8.407 
G03 X12.965 Y8.829 I-1.453 J1.847 
X13.282 Y9.276 I-6.014 J4.59 
X13.564 Y9.75 I-5.419 J3.546 
X13.805 Y10.236 I-7.152 J3.854 
X13.847 Y10.389 I-0.454 J0.207 
G01 X13.855 Y10.46 
G03 X13.744 Y10.831 I-0.497 J0.054 
G01 X13.305 Y11.367 
G03 X12.962 Y11.548 I-0.386 J-0.317 
G01 X12.891 Y11.554 
G03 X12.732 Y11.543 I-0.043 J-0.498 
X12.209 Y11.401 I1.861 J-7.909 
X11.689 Y11.217 I1.901 J-6.191 
X11.188 Y10.994 I2.828 J-7.017 
X10.694 Y10.668 I1.034 J-2.11 
G01 X10.668 Y10.694 
G03 X10.994 Y11.188 I-1.785 J1.528 
X11.217 Y11.689 I-6.794 J3.328 
X11.401 Y12.209 I-6.007 J2.421 
X11.543 Y12.732 I-7.767 J2.385 
X11.554 Y12.891 I-0.486 J0.114 
G01 X11.548 Y12.962 
G03 X11.367 Y13.305 I-0.498 J-0.043 
G01 X10.831 Y13.744 
G03 X10.46 Y13.855 I-0.317 J-0.386 
G01 X10.389 Y13.847 
G03 X10.236 Y13.805 I0.054 J-0.497 
X9.75 Y13.564 I3.368 J-7.393 
X9.276 Y13.282 I3.072 J-5.701 
X8.829 Y12.965 I4.143 J-6.33 
X8.407 Y12.55 I1.425 J-1.868 
G01 X8.377 Y12.57 
G03 X8.6 Y13.118 I-2.049 J1.15 
X8.721 Y13.652 I-7.313 J1.939 
X8.8 Y14.198 I-6.364 J1.202 
X8.837 Y14.74 I-8.083 J0.824 
X8.817 Y14.897 I-0.499 J0.017 
G01 X8.797 Y14.966 
G03 X8.553 Y15.267 I-0.479 J-0.14 
G01 X7.942 Y15.593 
G03 X7.556 Y15.629 I-0.235 J-0.44 
G01 X7.488 Y15.608 
G03 X7.346 Y15.537 I0.15 J-0.476 
X6.916 Y15.205 I4.746 J-6.594 
X6.506 Y14.836 I4.126 J-4.992 
X6.129 Y14.439 I5.298 J-5.4 
X5.797 Y13.949 I1.763 J-1.554 
G01 X5.764 Y13.963 
G03 X5.875 Y14.544 I-2.234 J0.728 
X5.89 Y15.092 I-7.551 J0.475 
X5.861 Y15.642 I-6.476 J-0.061 
X5.791 Y16.18 I-8.088 J-0.768 
X5.741 Y16.331 I-0.493 J-0.08 
G01 X5.708 Y16.395 
G03 X5.41 Y16.642 I-0.443 J-0.231 
G01 X4.747 Y16.843 
G03 X4.361 Y16.803 I-0.145 J-0.478 
G01 X4.299 Y16.769 
G03 X4.173 Y16.671 I0.24 J-0.438 
X3.817 Y16.262 I5.941 J-5.541 
X3.487 Y15.82 I5.021 J-4.091 
X3.195 Y15.357 I6.25 J-4.263 
X2.964 Y14.812 I2.032 J-1.18 
G01 X2.929 Y14.819 
G03 X2.925 Y15.411 I-2.333 J0.278 
X2.832 Y15.951 I-7.498 J-1.007 
X2.696 Y16.485 I-6.34 J-1.324 
X2.523 Y17 I-7.783 J-2.331 
X2.445 Y17.138 I-0.468 J-0.175 
G01 X2.4 Y17.193 
G03 X2.059 Y17.378 I-0.389 J-0.313 
G01 X1.37 Y17.446 
G03 X0.999 Y17.331 I-0.049 J-0.497 
G01 X0.945 Y17.285 
G03 X0.841 Y17.165 I0.321 J-0.383 
X0.571 Y16.695 I6.908 J-4.276 
X0.333 Y16.197 I5.722 J-3.033 
X0.137 Y15.685 I6.962 J-2.962 
X0.018 Y15.106 I2.223 J-0.761 
G01 X-0.018 Y15.106 
G03 X-0.137 Y15.685 I-2.343 J-0.181 
X-0.333 Y16.197 I-7.158 J-2.45 
X-0.571 Y16.695 I-5.96 J-2.535 
X-0.841 Y17.165 I-7.178 J-3.805 
X-0.945 Y17.285 I-0.425 J-0.263 
G01 X-0.999 Y17.331 
G03 X-1.37 Y17.446 I-0.321 J-0.383 
G01 X-2.059 Y17.378 
G03 X-2.4 Y17.193 I0.049 J-0.497 
G01 X-2.445 Y17.138 
G03 X-2.523 Y17 I0.389 J-0.313 
X-2.696 Y16.485 I7.61 J-2.846 
X-2.832 Y15.951 I6.204 J-1.858 
X-2.925 Y15.411 I7.406 J-1.546 
X-2.929 Y14.819 I2.329 J-0.312 
G01 X-2.964 Y14.812 
G03 X-3.195 Y15.357 I-2.262 J-0.635 
X-3.487 Y15.82 I-6.542 J-3.8 
X-3.817 Y16.262 I-5.35 J-3.649 
X-4.173 Y16.671 I-6.298 J-5.132 
X-4.299 Y16.769 I-0.365 J-0.341 
G01 X-4.361 Y16.803 
G03 X-4.747 Y16.843 I-0.24 J-0.438 
G01 X-5.41 Y16.642 
G03 X-5.708 Y16.395 I0.145 J-0.478 
G01 X-5.741 Y16.331 
G03 X-5.791 Y16.18 I0.443 J-0.231 
X-5.861 Y15.642 I8.019 J-1.306 
X-5.89 Y15.092 I6.448 J-0.612 
X-5.875 Y14.544 I7.565 J-0.072 
X-5.764 Y13.963 I2.345 J0.147 
G01 X-5.797 Y13.949 
G03 X-6.129 Y14.439 I-2.095 J-1.064 
X-6.506 Y14.836 I-5.675 J-5.003 
X-6.916 Y15.205 I-4.536 J-4.623 
X-7.346 Y15.537 I-5.176 J-6.263 
X-7.488 Y15.608 I-0.292 J-0.405 
G01 X-7.556 Y15.629 
G03 X-7.942 Y15.593 I-0.15 J-0.476 
G01 X-8.553 Y15.267 
G03 X-8.797 Y14.966 I0.235 J-0.44 
G01 X-8.817 Y14.897 
G03 X-8.837 Y14.74 I0.479 J-0.14 
X-8.8 Y14.198 I8.12 J0.282 
X-8.721 Y13.652 I6.443 J0.657 
X-8.6 Y13.118 I7.434 J1.405 
X-8.377 Y12.57 I2.271 J0.602 
G01 X-8.407 Y12.55 
G03 X-8.829 Y12.965 I-1.847 J-1.452 
X-9.276 Y13.282 I-4.59 J-6.014 
X-9.75 Y13.564 I-3.546 J-5.419 
X-10.236 Y13.805 I-3.854 J-7.152 
X-10.389 Y13.847 I-0.207 J-0.454 
G01 X-10.46 Y13.855 
G03 X-10.831 Y13.744 I-0.054 J-0.497 
G01 X-11.367 Y13.305 
G03 X-11.548 Y12.962 I0.317 J-0.386 
G01 X-11.554 Y12.891 
G03 X-11.543 Y12.732 I0.498 J-0.043 
X-11.401 Y12.209 I7.909 J1.861 
X-11.217 Y11.689 I6.191 J1.901 
X-10.994 Y11.188 I7.017 J2.828 
X-10.668 Y10.694 I2.11 J1.034 
G01 X-10.694 Y10.668 
G03 X-11.188 Y10.994 I-1.528 J-1.785 
X-11.689 Y11.217 I-3.328 J-6.794 
X-12.209 Y11.401 I-2.421 J-6.007 
X-12.732 Y11.543 I-2.385 J-7.767 
X-12.891 Y11.554 I-0.114 J-0.486 
G01 X-12.962 Y11.548 
G03 X-13.305 Y11.367 I0.043 J-0.498 
G01 X-13.744 Y10.831 
G03 X-13.855 Y10.46 I0.386 J-0.317 
G01 X-13.847 Y10.389 
G03 X-13.805 Y10.236 I0.497 J0.054 
X-13.564 Y9.75 I7.393 J3.368 
X-13.282 Y9.276 I5.701 J3.072 
X-12.965 Y8.829 I6.33 J4.143 
X-12.55 Y8.407 I1.868 J1.426 
G01 X-12.57 Y8.377 
G03 X-13.118 Y8.6 I-1.15 J-2.049 
X-13.652 Y8.721 I-1.939 J-7.313 
X-14.198 Y8.8 I-1.202 J-6.364 
X-14.74 Y8.837 I-0.824 J-8.083 
X-14.897 Y8.817 I-0.017 J-0.499 
G01 X-14.966 Y8.797 
G03 X-15.267 Y8.553 I0.14 J-0.479 
G01 X-15.593 Y7.942 
G03 X-15.629 Y7.556 I0.44 J-0.235 
G01 X-15.608 Y7.488 
G03 X-15.537 Y7.346 I0.476 J0.15 
X-15.205 Y6.916 I6.594 J4.746 
X-14.836 Y6.506 I4.992 J4.126 
X-14.439 Y6.129 I5.4 J5.298 
X-13.949 Y5.797 I1.554 J1.763 
G01 X-13.963 Y5.764 
G03 X-14.544 Y5.875 I-0.728 J-2.234 
X-15.092 Y5.89 I-0.475 J-7.551 
X-15.642 Y5.861 I0.061 J-6.476 
X-16.18 Y5.791 I0.768 J-8.088 
X-16.331 Y5.741 I0.08 J-0.493 
G01 X-16.395 Y5.708 
G03 X-16.642 Y5.41 I0.231 J-0.443 
G01 X-16.843 Y4.747 
G03 X-16.803 Y4.361 I0.478 J-0.145 
G01 X-16.769 Y4.299 
G03 X-16.671 Y4.173 I0.438 J0.24 
X-16.262 Y3.817 I5.541 J5.941 
X-15.82 Y3.487 I4.091 J5.021 
X-15.357 Y3.195 I4.263 J6.25 
X-14.812 Y2.964 I1.18 J2.032 
G01 X-14.819 Y2.929 
G03 X-15.411 Y2.925 I-0.278 J-2.333 
X-15.951 Y2.832 I1.007 J-7.498 
X-16.485 Y2.696 I1.324 J-6.34 
X-17 Y2.523 I2.331 J-7.783 
X-17.138 Y2.445 I0.175 J-0.468 
G01 X-17.193 Y2.4 
G03 X-17.378 Y2.059 I0.313 J-0.389 
G01 X-17.446 Y1.37 
G03 X-17.331 Y0.999 I0.497 J-0.049 
G01 X-17.285 Y0.945 
G03 X-17.165 Y0.841 I0.383 J0.321 
X-16.695 Y0.571 I4.276 J6.908 
X-16.197 Y0.333 I3.033 J5.722 
X-15.685 Y0.137 I2.962 J6.962 
X-15.106 Y0.018 I0.761 J2.223 
G01 X-15.106 Y-0.018 
G03 X-15.685 Y-0.137 I0.181 J-2.343 
X-16.197 Y-0.333 I2.45 J-7.158 
X-16.695 Y-0.571 I2.535 J-5.96 
X-17.165 Y-0.841 I3.805 J-7.178 
X-17.285 Y-0.945 I0.263 J-0.425 
G01 X-17.331 Y-0.999 
G03 X-17.446 Y-1.37 I0.383 J-0.321 
G01 X-17.378 Y-2.059 
G03 X-17.193 Y-2.4 I0.497 J0.049 
G01 X-17.138 Y-2.445 
G03 X-17 Y-2.523 I0.313 J0.389 
X-16.485 Y-2.696 I2.846 J7.61 
X-15.951 Y-2.832 I1.858 J6.204 
X-15.411 Y-2.925 I1.546 J7.406 
X-14.819 Y-2.929 I0.312 J2.329 
G01 X-14.812 Y-2.964 
G03 X-15.357 Y-3.195 I0.635 J-2.262 
X-15.82 Y-3.487 I3.8 J-6.542 
X-16.262 Y-3.817 I3.649 J-5.35 
X-16.671 Y-4.173 I5.132 J-6.298 
X-16.769 Y-4.299 I0.341 J-0.365 
G01 X-16.803 Y-4.361 
G03 X-16.843 Y-4.747 I0.438 J-0.24 
G01 X-16.642 Y-5.41 
G03 X-16.395 Y-5.708 I0.478 J0.145 
G01 X-16.331 Y-5.741 
G03 X-16.18 Y-5.791 I0.231 J0.443 
X-15.642 Y-5.861 I1.306 J8.019 
X-15.092 Y-5.89 I0.612 J6.448 
X-14.544 Y-5.875 I0.072 J7.565 
X-13.963 Y-5.764 I-0.147 J2.345 
G01 X-13.949 Y-5.797 
G03 X-14.439 Y-6.129 I1.064 J-2.095 
X-14.836 Y-6.506 I5.003 J-5.675 
X-15.205 Y-6.916 I4.623 J-4.536 
X-15.537 Y-7.346 I6.263 J-5.176 
X-15.608 Y-7.488 I0.405 J-0.292 
G01 X-15.629 Y-7.556 
G03 X-15.593 Y-7.942 I0.476 J-0.15 
G01 X-15.267 Y-8.553 
G03 X-14.966 Y-8.797 I0.44 J0.235 
G01 X-14.897 Y-8.817 
G03 X-14.74 Y-8.837 I0.14 J0.479 
X-14.198 Y-8.8 I-0.282 J8.12 
X-13.652 Y-8.721 I-0.657 J6.443 
X-13.118 Y-8.6 I-1.405 J7.434 
X-12.57 Y-8.377 I-0.602 J2.271 
G01 X-12.55 Y-8.407 
G03 X-12.965 Y-8.829 I1.453 J-1.847 
X-13.282 Y-9.276 I6.014 J-4.59 
X-13.564 Y-9.75 I5.419 J-3.546 
X-13.805 Y-10.236 I7.152 J-3.854 
X-13.847 Y-10.389 I0.454 J-0.207 
G01 X-13.855 Y-10.46 
G03 X-13.744 Y-10.831 I0.497 J-0.054 
G01 X-13.305 Y-11.367 
G03 X-12.962 Y-11.548 I0.386 J0.317 
G01 X-12.891 Y-11.554 
G03 X-12.732 Y-11.543 I0.043 J0.498 
X-12.209 Y-11.401 I-1.861 J7.909 
X-11.689 Y-11.217 I-1.901 J6.191 
X-11.188 Y-10.994 I-2.828 J7.018 
X-10.694 Y-10.668 I-1.034 J2.11 
G01 X-10.668 Y-10.694 
G03 X-10.994 Y-11.188 I1.785 J-1.528 
X-11.217 Y-11.689 I6.795 J-3.328 
X-11.401 Y-12.209 I6.007 J-2.421 
X-11.543 Y-12.732 I7.767 J-2.385 
X-11.554 Y-12.891 I0.486 J-0.114 
G01 X-11.548 Y-12.962 
G03 X-11.367 Y-13.305 I0.498 J0.043 
G01 X-10.831 Y-13.744 
G03 X-10.46 Y-13.855 I0.317 J0.386 
G01 X-10.389 Y-13.847 
G03 X-10.236 Y-13.805 I-0.054 J0.497 
X-9.75 Y-13.564 I-3.368 J7.393 
X-9.276 Y-13.282 I-3.072 J5.701 
X-8.829 Y-12.965 I-4.143 J6.33 
X-8.407 Y-12.55 I-1.426 J1.868 
G01 X-8.377 Y-12.57 
G03 X-8.6 Y-13.118 I2.049 J-1.15 
X-8.721 Y-13.652 I7.313 J-1.939 
X-8.8 Y-14.198 I6.364 J-1.202 
X-8.837 Y-14.74 I8.083 J-0.824 
X-8.817 Y-14.897 I0.499 J-0.017 
G01 X-8.797 Y-14.966 
G03 X-8.553 Y-15.267 I0.479 J0.14 
G01 X-7.942 Y-15.593 
G03 X-7.556 Y-15.629 I0.235 J0.44 
G01 X-7.488 Y-15.608 
G03 X-7.346 Y-15.537 I-0.15 J0.476 
X-6.916 Y-15.205 I-4.746 J6.594 
X-6.506 Y-14.836 I-4.126 J4.992 
X-6.129 Y-14.439 I-5.298 J5.4 
X-5.797 Y-13.949 I-1.763 J1.554 
G01 X-5.764 Y-13.963 
G03 X-5.875 Y-14.544 I2.234 J-0.728 
X-5.89 Y-15.092 I7.551 J-0.475 
X-5.861 Y-15.642 I6.476 J0.061 
X-5.791 Y-16.18 I8.088 J0.768 
X-5.741 Y-16.331 I0.493 J0.08 
G01 X-5.708 Y-16.395 
G03 X-5.41 Y-16.642 I0.443 J0.231 
G01 X-4.747 Y-16.843 
G03 X-4.361 Y-16.803 I0.145 J0.478 
G01 X-4.299 Y-16.769 
G03 X-4.173 Y-16.671 I-0.24 J0.438 
X-3.817 Y-16.262 I-5.941 J5.541 
X-3.487 Y-15.82 I-5.021 J4.091 
X-3.195 Y-15.357 I-6.25 J4.263 
X-2.964 Y-14.812 I-2.032 J1.18 
G01 X-2.929 Y-14.819 
G03 X-2.925 Y-15.411 I2.333 J-0.278 
X-2.832 Y-15.951 I7.498 J1.007 
X-2.696 Y-16.485 I6.34 J1.324 
X-2.523 Y-17 I7.783 J2.331 
X-2.445 Y-17.138 I0.468 J0.175 
G01 X-2.4 Y-17.193 
G03 X-2.059 Y-17.378 I0.389 J0.313 
G01 X-1.37 Y-17.446 
G03 X-0.999 Y-17.331 I0.049 J0.497 
G01 X-0.945 Y-17.285 
G03 X-0.841 Y-17.165 I-0.321 J0.383 
X-0.571 Y-16.695 I-6.908 J4.276 
X-0.333 Y-16.197 I-5.722 J3.033 
X-0.137 Y-15.685 I-6.962 J2.962 
X-0.018 Y-15.106 I-2.223 J0.761 
G01 X0.018 Y-15.106 
G03 X0.137 Y-15.685 I2.343 J0.181 
X0.333 Y-16.197 I7.158 J2.45 
X0.571 Y-16.695 I5.96 J2.535 
X0.841 Y-17.165 I7.178 J3.805 
X0.945 Y-17.285 I0.425 J0.263 
G01 X0.999 Y-17.331 
G03 X1.37 Y-17.446 I0.321 J0.383 
G01 X2.059 Y-17.378 
G03 X2.4 Y-17.193 I-0.049 J0.497 
G01 X2.445 Y-17.138 
G03 X2.523 Y-17 I-0.389 J0.313 
X2.696 Y-16.485 I-7.61 J2.846 
X2.832 Y-15.951 I-6.204 J1.858 
X2.925 Y-15.411 I-7.406 J1.546 
X2.929 Y-14.819 I-2.329 J0.312 
G01 X2.964 Y-14.812 
G03 X3.195 Y-15.357 I2.262 J0.635 
X3.487 Y-15.82 I6.542 J3.8 
X3.817 Y-16.262 I5.35 J3.649 
X4.173 Y-16.671 I6.298 J5.132 
X4.299 Y-16.769 I0.365 J0.341 
G01 X4.361 Y-16.803 
G03 X4.747 Y-16.843 I0.24 J0.438 
G01 X5.078 Y-16.743 
G00 Z10
T0 M06 M02
